; generated by Slic3r 1.2.9 on 2019-03-28 at 14:49:48

; external perimeters extrusion width = 0.40mm
; perimeters extrusion width = 0.40mm
; infill extrusion width = 0.40mm
; solid infill extrusion width = 0.40mm
; top infill extrusion width = 0.40mm

M107
M83
T0
M116
G21 ; set units to millimeters
G90 ; use absolute coordinates
M83 ; use relative distances for extrusion
G1 E-3.50000 F1500.00000
G1 Z0.400 F15000.000
G1 X0.000 Y-33.871 F15000.000
G1 Z0.300 F15000.000
G1 E3.50000 F1500.00000
G1 X29.084 Y-33.871 E2.24134 F960.000
G1 X30.731 Y-33.476 E0.13052
G1 X32.236 Y-32.046 E0.16001 F960.000
G1 X45.147 Y-9.574 E1.99731
G1 X45.483 Y-8.784 E0.06615
G1 X52.776 Y16.126 E2.00030
G1 X52.860 Y17.818 E0.13052
G1 X52.169 Y19.364 E0.13052
G1 X51.002 Y20.354 E0.11792
G1 X45.490 Y23.295 E0.48150
G1 X39.967 Y25.826 E0.46816
G1 X34.094 Y28.101 E0.48535
G1 X28.093 Y30.010 E0.48535
G1 X21.986 Y31.548 E0.48535
G1 X15.796 Y32.709 E0.48535
G1 X9.546 Y33.487 E0.48535
G1 X3.261 Y33.880 E0.48535
G1 X-3.037 Y33.887 E0.48535
G1 X-9.324 Y33.507 E0.48535
G1 X-15.796 Y32.709 E0.50255
G1 X-21.986 Y31.548 E0.48535
G1 X-28.093 Y30.010 E0.48535
G1 X-34.095 Y28.101 E0.48535
G1 X-39.967 Y25.826 E0.48535
G1 X-45.490 Y23.295 E0.46816
G1 X-51.002 Y20.354 E0.48150
G1 X-52.268 Y19.229 E0.13052
G1 X-52.887 Y17.652 E0.13052
G1 X-52.732 Y15.987 E0.12891
G1 X-44.338 Y-8.924 E2.02579
G1 X-44.045 Y-9.574 E0.05495
G1 X-31.135 Y-32.046 E1.99730
G1 X-29.972 Y-33.278 E0.13052
G1 X-27.982 Y-33.871 E0.16001
G1 X-0.060 Y-33.871 E2.15183
G1 E-3.50000 F1500.00000
G1 Z0.700 F15000.000
G1 X15.863 Y-16.756 F15000.000
G1 Z0.300 F15000.000
G1 E3.50000 F1500.00000
G1 X16.802 Y-17.281 E0.08287 F600.000
G1 X17.870 Y-17.559 E0.08506
G1 X18.912 Y-17.573 E0.08031 F600.000
G1 X19.957 Y-17.324 E0.08277
G1 X20.908 Y-16.826 E0.08277
G1 X21.708 Y-16.110 E0.08277
G1 X22.308 Y-15.219 E0.08277
G1 X22.671 Y-14.208 E0.08277
G1 X22.774 Y-13.139 E0.08277
G1 X22.612 Y-12.077 E0.08277
G1 X22.204 Y-11.110 E0.08084
G1 X20.022 Y-7.332 E0.33626
G1 X16.243 Y-9.513 E0.33626
G1 X15.407 Y-10.146 E0.08084
G1 X14.736 Y-10.985 E0.08277
G1 X14.291 Y-11.962 E0.08277
G1 X14.099 Y-13.019 E0.08277
G1 X14.173 Y-14.091 E0.08277
G1 X14.508 Y-15.111 E0.08277
G1 X15.083 Y-16.018 E0.08277
G1 X15.819 Y-16.715 E0.07815
G1 X15.835 Y-17.156 F15000.000
G1 X10.841 Y-13.737 F15000.000
G1 X11.341 Y-12.610 E0.09498 F600.000
G1 X11.550 Y-11.395 E0.09498
G1 X11.454 Y-10.167 E0.09498
G1 X11.059 Y-8.999 E0.09498
G1 X10.425 Y-8.019 E0.08999
G1 X7.186 Y-4.159 E0.38829
G1 X3.326 Y-7.398 E0.38829
G1 X2.532 Y-8.253 E0.08999
G1 X1.940 Y-9.334 E0.09498
G1 X1.632 Y-10.528 E0.09498
G1 X1.626 Y-11.760 E0.09498
G1 X1.923 Y-12.956 E0.09498
G1 X2.505 Y-14.043 E0.09498
G1 X3.336 Y-14.954 E0.09498
G1 X4.364 Y-15.632 E0.09498
G1 X5.528 Y-16.038 E0.09498
G1 X5.735 Y-16.056 E0.01602
G1 X6.756 Y-16.145 E0.07896 F600.000
G1 X7.973 Y-15.948 E0.09498
G1 X9.103 Y-15.458 E0.09498
G1 X10.080 Y-14.706 E0.09498
G1 X10.804 Y-13.784 E0.09036
G1 X10.292 Y-13.406 F15000.000
G1 X10.728 Y-12.425 E0.08277 F600.000
G1 X10.910 Y-11.366 E0.08277
G1 X10.826 Y-10.295 E0.08277
G1 X10.482 Y-9.278 E0.08277
G1 X9.912 Y-8.397 E0.08084
G1 X7.108 Y-5.055 E0.33626
G1 X3.765 Y-7.859 E0.33626
G1 X3.051 Y-8.628 E0.08084
G1 X2.536 Y-9.570 E0.08277
G1 X2.267 Y-10.610 E0.08277
G1 X2.262 Y-11.684 E0.08277
G1 X2.521 Y-12.726 E0.08277
G1 X3.028 Y-13.673 E0.08277
G1 X3.752 Y-14.467 E0.08277
G1 X4.648 Y-15.058 E0.08277
G1 X5.662 Y-15.412 E0.08277
G1 X5.791 Y-15.423 E0.00992
G1 X6.732 Y-15.505 E0.07286 F600.000
G1 X7.793 Y-15.333 E0.08277
G1 X8.778 Y-14.907 E0.08277
G1 X9.629 Y-14.251 E0.08277
G1 X10.255 Y-13.453 E0.07815
G1 X10.692 Y-13.397 F15000.000
G1 E-3.50000 F1500.00000
G1 Z0.700 F15000.000
G1 X-0.525 Y-11.760 F15000.000
G1 Z0.300 F15000.000
G1 E3.50000 F1500.00000
G1 X-0.530 Y-10.528 E0.09498 F600.000
G1 X-0.838 Y-9.334 E0.09498
G1 X-1.430 Y-8.253 E0.09498
G1 X-2.225 Y-7.398 E0.08999
G1 X-6.085 Y-4.159 E0.38829
G1 X-9.323 Y-8.019 E0.38829
G1 X-9.957 Y-8.999 E0.08999
G1 X-10.352 Y-10.167 E0.09498
G1 X-10.448 Y-11.395 E0.09498
G1 X-10.240 Y-12.610 E0.09498
G1 X-9.740 Y-13.737 E0.09498
G1 X-8.978 Y-14.706 E0.09498
G1 X-7.999 Y-15.461 E0.09527
G1 X-6.837 Y-15.954 E0.09727
G1 X-5.654 Y-16.145 E0.09234 F600.000
G1 X-4.427 Y-16.038 E0.09498
G1 X-3.263 Y-15.632 E0.09498
G1 X-2.231 Y-14.952 E0.09527
G1 X-1.387 Y-14.013 E0.09727
G1 X-0.822 Y-12.956 E0.09234
G1 X-0.539 Y-11.818 E0.09036
G1 X-1.161 Y-11.684 F15000.000
G1 X-1.166 Y-10.610 E0.08277 F600.000
G1 X-1.434 Y-9.570 E0.08277
G1 X-1.950 Y-8.628 E0.08277
G1 X-2.664 Y-7.859 E0.08084
G1 X-6.006 Y-5.055 E0.33626
G1 X-8.811 Y-8.397 E0.33626
G1 X-9.381 Y-9.278 E0.08084
G1 X-9.725 Y-10.295 E0.08277
G1 X-9.808 Y-11.366 E0.08277
G1 X-9.627 Y-12.425 E0.08277
G1 X-9.191 Y-13.406 E0.08277
G1 X-8.527 Y-14.251 E0.08277
G1 X-7.676 Y-14.907 E0.08287
G1 X-6.660 Y-15.339 E0.08506
G1 X-5.631 Y-15.505 E0.08031 F600.000
G1 X-4.561 Y-15.412 E0.08277
G1 X-3.547 Y-15.058 E0.08277
G1 X-2.649 Y-14.466 E0.08287
G1 X-1.911 Y-13.645 E0.08506
G1 X-1.420 Y-12.726 E0.08031
G1 X-1.175 Y-11.742 E0.07815
G1 X-0.800 Y-11.512 F15000.000
G1 X7.640 Y1.953 F15000.000
G1 X5.911 Y2.122 E0.13383 F720.000
G1 X0.551 Y2.297 E0.41333
G1 X-4.810 Y2.122 E0.41333
G1 X-10.148 Y1.599 E0.41333
G1 X-15.440 Y0.728 E0.41333
G1 X-17.315 Y0.293 E0.14831
G1 X-16.669 Y-0.407 E0.07340
G1 X-16.175 Y-1.303 E0.07883
G1 X-15.911 Y-2.291 E0.07883
G1 X-15.890 Y-3.314 E0.07883
G1 X-16.115 Y-4.312 E0.07883
G1 X-16.572 Y-5.227 E0.07883
G1 X-17.234 Y-6.006 E0.07883
G1 X-18.064 Y-6.604 E0.07883
G1 X-18.563 Y-6.804 E0.04140
G1 X-14.790 Y-8.983 E0.33573
G1 X-13.859 Y-9.687 E0.08999
G1 X-13.088 Y-10.649 E0.09498
G1 X-12.592 Y-11.740 E0.09234
G1 X-12.358 Y-12.980 E0.09727
G1 X-12.443 Y-14.213 E0.09527
G1 X-12.827 Y-15.384 E0.09498
G1 X-13.487 Y-16.425 E0.09498
G1 X-14.329 Y-17.222 E0.08931
G1 X-13.255 Y-17.605 E0.08783
G1 X-12.402 Y-18.169 E0.07883
G1 X-11.708 Y-18.920 E0.07883
G1 X-11.215 Y-19.816 E0.07883
G1 X-10.950 Y-20.805 E0.07883
G1 X-10.929 Y-21.827 E0.07883
G1 X-11.155 Y-22.830 E0.07920
G1 X-6.454 Y-22.069 E0.36697
G1 X-1.789 Y-21.694 E0.36068
G1 X2.891 Y-21.694 E0.36068
G1 X7.556 Y-22.069 E0.36068
G1 X12.256 Y-22.830 E0.36697
G1 X12.109 Y-22.176 E0.05168
G1 X12.031 Y-21.827 E0.02753 F720.000
G1 X12.051 Y-20.805 E0.07883
G1 X12.316 Y-19.816 E0.07883
G1 X12.810 Y-18.920 E0.07883
G1 X13.503 Y-18.169 E0.07883
G1 X14.357 Y-17.605 E0.07883
G1 X15.430 Y-17.222 E0.08783
G1 X14.588 Y-16.425 E0.08931
G1 X13.929 Y-15.384 E0.09498
G1 X13.544 Y-14.213 E0.09498
G1 X13.460 Y-12.984 E0.09498
G1 X13.679 Y-11.771 E0.09498
G1 X14.190 Y-10.649 E0.09498
G1 X14.960 Y-9.687 E0.09498
G1 X15.891 Y-8.983 E0.08999
G1 X19.664 Y-6.804 E0.33573
G1 X19.166 Y-6.604 E0.04140
G1 X18.336 Y-6.006 E0.07883
G1 X17.673 Y-5.227 E0.07883
G1 X17.216 Y-4.312 E0.07883
G1 X16.991 Y-3.314 E0.07883
G1 X17.012 Y-2.291 E0.07883
G1 X17.277 Y-1.303 E0.07883
G1 X17.770 Y-0.407 E0.07883
G1 X18.416 Y0.293 E0.07340
G1 X16.541 Y0.728 E0.14831
G1 X11.249 Y1.599 E0.41334
G1 X7.699 Y1.947 E0.27488
G1 E-3.50000 F1500.00000
G1 Z0.700 F15000.000
G1 X26.504 Y-14.496 F15000.000
G1 Z0.300 F15000.000
G1 E3.50000 F1500.00000
G1 X25.897 Y-15.382 E0.08277 F600.000
G1 X25.525 Y-16.389 E0.08277
G1 X25.411 Y-17.457 E0.08277
G1 X25.564 Y-18.520 E0.08277
G1 X25.972 Y-19.514 E0.08277
G1 X26.613 Y-20.376 E0.08277
G1 X27.446 Y-21.056 E0.08287
G1 X28.449 Y-21.515 E0.08506
G1 X29.473 Y-21.710 E0.08031 F600.000
G1 X30.545 Y-21.646 E0.08277
G1 X31.570 Y-21.320 E0.08287
G1 X32.503 Y-20.731 E0.08506
G1 X33.227 Y-19.981 E0.08031
G1 X33.759 Y-19.048 E0.08277
G1 X34.047 Y-18.013 E0.08277
G1 X34.072 Y-16.940 E0.08277
G1 X33.837 Y-15.917 E0.08084
G1 X32.345 Y-11.817 E0.33626
G1 X28.245 Y-13.309 E0.33626
G1 X27.311 Y-13.787 E0.08084
G1 X26.550 Y-14.457 E0.07815
G1 X26.110 Y-14.432 F15000.000
G1 X20.458 Y-21.783 F15000.000
G1 X20.454 Y-21.997 E0.01647 F720.000
G1 X20.189 Y-22.985 E0.07883
G1 X19.695 Y-23.881 E0.07883
G1 X18.961 Y-24.677 E0.08345
G1 X21.162 Y-25.409 E0.17877
G1 X25.471 Y-27.236 E0.36068
G1 X28.701 Y-28.923 E0.28080
G1 X32.935 Y-21.553 E0.65502
G1 X32.719 Y-21.347 E0.02299 F720.000
G1 X31.840 Y-21.901 E0.08010
G1 X30.662 Y-22.276 E0.09527
G1 X29.432 Y-22.349 E0.09498
G1 X28.255 Y-22.125 E0.09234
G1 X27.107 Y-21.600 E0.09727
G1 X26.149 Y-20.819 E0.09527
G1 X25.415 Y-19.829 E0.09498
G1 X24.946 Y-18.689 E0.09498
G1 X24.771 Y-17.469 E0.09498
G1 X24.901 Y-16.243 E0.09498
G1 X25.328 Y-15.087 E0.09498
G1 X26.025 Y-14.071 E0.09498
G1 X26.951 Y-13.257 E0.09498
G1 X27.990 Y-12.725 E0.08999
G1 X32.725 Y-11.002 E0.38829
G1 X34.448 Y-15.737 E0.38829
G1 X34.709 Y-16.875 E0.08999
G1 X34.685 Y-17.930 E0.08135
G1 X34.970 Y-18.010 E0.02285
G1 X40.632 Y-8.154 E0.87595
G1 X36.812 Y-6.122 E0.33348
G1 X31.923 Y-3.917 E0.41333
G1 X26.900 Y-2.035 E0.41333
G1 X25.225 Y-1.529 E0.13485
G1 X25.435 Y-2.461 E0.07356
G1 X25.414 Y-3.483 E0.07883
G1 X25.150 Y-4.471 E0.07883
G1 X24.656 Y-5.367 E0.07883
G1 X23.962 Y-6.119 E0.07883
G1 X23.109 Y-6.683 E0.07883
G1 X22.145 Y-7.027 E0.07883
G1 X21.128 Y-7.130 E0.07883
G1 X20.596 Y-7.054 E0.04140
G1 X22.774 Y-10.827 E0.33573
G1 X23.228 Y-11.903 E0.08999
G1 X23.414 Y-13.121 E0.09498
G1 X23.296 Y-14.348 E0.09498
G1 X22.880 Y-15.508 E0.09498
G1 X22.191 Y-16.530 E0.09498
G1 X21.273 Y-17.352 E0.09498
G1 X20.181 Y-17.924 E0.09498
G1 X19.054 Y-18.193 E0.08931
G1 X19.792 Y-19.061 E0.08783
G1 X20.249 Y-19.976 E0.07883
G1 X20.474 Y-20.974 E0.07883
G1 X20.459 Y-21.723 E0.05773
G1 E-3.50000 F1500.00000
G1 Z0.700 F15000.000
G1 X-13.072 Y-14.091 F15000.000
G1 Z0.300 F15000.000
G1 E3.50000 F1500.00000
G1 X-12.998 Y-13.018 E0.08287 F600.000
G1 X-13.202 Y-11.933 E0.08506
G1 X-13.634 Y-10.985 E0.08031
G1 X-14.305 Y-10.146 E0.08277
G1 X-15.142 Y-9.513 E0.08084
G1 X-18.921 Y-7.332 E0.33626
G1 X-21.102 Y-11.110 E0.33626
G1 X-21.511 Y-12.077 E0.08084
G1 X-21.673 Y-13.139 E0.08277
G1 X-21.569 Y-14.208 E0.08277
G1 X-21.207 Y-15.219 E0.08277
G1 X-20.607 Y-16.110 E0.08277
G1 X-19.806 Y-16.827 E0.08287
G1 X-18.824 Y-17.332 E0.08506
G1 X-17.810 Y-17.573 E0.08031 F600.000
G1 X-16.736 Y-17.559 E0.08277
G1 X-15.699 Y-17.281 E0.08277
G1 X-14.762 Y-16.756 E0.08277
G1 X-13.981 Y-16.018 E0.08277
G1 X-13.406 Y-15.111 E0.08277
G1 X-13.090 Y-14.148 E0.07815
G1 X-12.699 Y-13.945 F15000.000
G1 E-3.50000 F1500.00000
G1 Z0.700 F15000.000
G1 X-32.855 Y-4.834 F15000.000
G1 Z0.300 F15000.000
G1 E3.50000 F1500.00000
G1 X-35.710 Y-6.122 E0.24142 F720.000
G1 X-39.531 Y-8.154 E0.33348
G1 X-33.869 Y-18.010 E0.87595
G1 X-33.583 Y-17.930 E0.02285
G1 X-33.607 Y-16.875 E0.08135
G1 X-33.347 Y-15.737 E0.08999
G1 X-31.624 Y-11.002 E0.38829
G1 X-26.889 Y-12.725 E0.38829
G1 X-25.850 Y-13.257 E0.08999
G1 X-24.924 Y-14.071 E0.09498
G1 X-24.226 Y-15.087 E0.09498
G1 X-23.799 Y-16.243 E0.09498
G1 X-23.669 Y-17.469 E0.09498
G1 X-23.844 Y-18.689 E0.09498
G1 X-24.313 Y-19.829 E0.09498
G1 X-25.048 Y-20.819 E0.09498
G1 X-26.003 Y-21.598 E0.09498
G1 X-27.120 Y-22.119 E0.09498
G1 X-28.331 Y-22.349 E0.09498
G1 X-29.527 Y-22.278 E0.09234
G1 X-30.732 Y-21.904 E0.09727
G1 X-31.613 Y-21.357 E0.07992
G1 X-31.827 Y-21.564 E0.02290
G1 X-27.599 Y-28.923 E0.65405
G1 X-24.370 Y-27.236 E0.28080
G1 X-20.061 Y-25.409 E0.36068 F720.000
G1 X-17.860 Y-24.677 E0.17877
G1 X-18.594 Y-23.881 E0.08345
G1 X-19.087 Y-22.985 E0.07883
G1 X-19.352 Y-21.997 E0.07883
G1 X-19.373 Y-20.974 E0.07883
G1 X-19.148 Y-19.976 E0.07883
G1 X-18.691 Y-19.061 E0.07883
G1 X-17.952 Y-18.193 E0.08783
G1 X-19.046 Y-17.932 E0.08667
G1 X-20.169 Y-17.355 E0.09727
G1 X-21.090 Y-16.530 E0.09527
G1 X-21.778 Y-15.508 E0.09498
G1 X-22.194 Y-14.348 E0.09498
G1 X-22.313 Y-13.121 E0.09498
G1 X-22.127 Y-11.903 E0.09498
G1 X-21.673 Y-10.827 E0.08999
G1 X-19.494 Y-7.054 E0.33573
G1 X-20.026 Y-7.130 E0.04140
G1 X-21.044 Y-7.027 E0.07883
G1 X-22.008 Y-6.683 E0.07883
G1 X-22.861 Y-6.119 E0.07883
G1 X-23.555 Y-5.367 E0.07883
G1 X-24.048 Y-4.471 E0.07883
G1 X-24.313 Y-3.483 E0.07883
G1 X-24.333 Y-2.461 E0.07883
G1 X-24.124 Y-1.529 E0.07356
G1 X-25.799 Y-2.035 E0.13486
G1 X-30.821 Y-3.917 E0.41333
G1 X-32.800 Y-4.810 E0.16729
G1 X-31.244 Y-11.817 F15000.000
G1 X-32.736 Y-15.917 E0.33626 F600.000
G1 X-32.970 Y-16.940 E0.08084
G1 X-32.945 Y-18.013 E0.08277
G1 X-32.658 Y-19.048 E0.08277
G1 X-32.125 Y-19.981 E0.08277
G1 X-31.380 Y-20.754 E0.08277
G1 X-30.466 Y-21.321 E0.08287
G1 X-29.412 Y-21.648 E0.08506
G1 X-28.372 Y-21.710 E0.08031 F600.000
G1 X-27.317 Y-21.509 E0.08277
G1 X-26.343 Y-21.055 E0.08277
G1 X-25.511 Y-20.376 E0.08277
G1 X-24.871 Y-19.514 E0.08277
G1 X-24.462 Y-18.521 E0.08277
G1 X-24.310 Y-17.457 E0.08277
G1 X-24.423 Y-16.389 E0.08277
G1 X-24.795 Y-15.382 E0.08277
G1 X-25.403 Y-14.496 E0.08277
G1 X-26.210 Y-13.787 E0.08277
G1 X-27.144 Y-13.309 E0.08084
G1 X-31.187 Y-11.837 E0.33164
G1 X-31.620 Y-11.680 F15000.000
G1 X-36.421 Y-14.844 F15000.000
G1 X-27.846 Y-29.769 E1.32651 F720.000
G1 X-24.098 Y-27.811 E0.32589
G1 X-19.836 Y-26.004 E0.35674
G1 X-16.638 Y-24.941 E0.25971
G1 X-16.635 Y-24.669 E0.02096
G1 X-16.761 Y-24.624 E0.01026
G1 X-17.485 Y-24.145 E0.06694
G1 X-18.074 Y-23.507 E0.06694
G1 X-18.493 Y-22.746 E0.06694
G1 X-18.718 Y-21.907 E0.06694
G1 X-18.736 Y-21.039 E0.06694
G1 X-18.545 Y-20.191 E0.06694
G1 X-18.157 Y-19.414 E0.06694
G1 X-17.594 Y-18.753 E0.06694
G1 X-16.889 Y-18.245 E0.06694
G1 X-16.083 Y-17.921 E0.06694
G1 X-15.224 Y-17.799 E0.06694
G1 X-14.359 Y-17.886 E0.06694
G1 X-13.541 Y-18.177 E0.06694
G1 X-12.817 Y-18.656 E0.06694
G1 X-12.228 Y-19.295 E0.06694
G1 X-11.809 Y-20.056 E0.06694
G1 X-11.584 Y-20.894 E0.06694
G1 X-11.566 Y-21.763 E0.06694
G1 X-11.757 Y-22.610 E0.06694
G1 X-12.145 Y-23.387 E0.06694
G1 X-12.226 Y-23.482 E0.00958
G1 X-12.080 Y-23.718 E0.02139
G1 X-10.948 Y-23.440 E0.08984
G1 X-6.378 Y-22.701 E0.35674
G1 X-1.764 Y-22.330 E0.35674
G1 X2.865 Y-22.330 E0.35674
G1 X7.480 Y-22.701 E0.35675
G1 X12.049 Y-23.440 E0.35674
G1 X13.181 Y-23.718 E0.08984
G1 X13.327 Y-23.482 E0.02139
G1 X13.247 Y-23.387 E0.00958
G1 X12.859 Y-22.610 E0.06694
G1 X12.668 Y-21.763 E0.06694
G1 X12.685 Y-20.895 E0.06694
G1 X12.910 Y-20.056 E0.06694
G1 X13.329 Y-19.295 E0.06694
G1 X13.918 Y-18.656 E0.06694
G1 X14.643 Y-18.177 E0.06694
G1 X15.461 Y-17.886 E0.06694
G1 X16.325 Y-17.799 E0.06694
G1 X17.185 Y-17.921 E0.06694
G1 X17.991 Y-18.245 E0.06694
G1 X18.695 Y-18.753 E0.06694
G1 X19.258 Y-19.414 E0.06694
G1 X19.646 Y-20.191 E0.06694
G1 X19.837 Y-21.039 E0.06694
G1 X19.820 Y-21.907 E0.06694
G1 X19.595 Y-22.746 E0.06694
G1 X19.176 Y-23.507 E0.06694
G1 X18.587 Y-24.145 E0.06694
G1 X17.862 Y-24.624 E0.06694
G1 X17.737 Y-24.669 E0.01026
G1 X17.740 Y-24.941 E0.02096
G1 X20.938 Y-26.004 E0.25971
G1 X25.199 Y-27.811 E0.35674
G1 X28.948 Y-29.769 E0.32589
G1 X41.511 Y-7.902 E1.94353
G1 X37.092 Y-5.551 E0.38569 F720.000
G1 X32.165 Y-3.329 E0.41653
G1 X27.104 Y-1.433 E0.41653
G1 X24.019 Y-0.501 E0.24831
G1 X24.607 Y-1.678 E0.10134
G1 X24.798 Y-2.525 E0.06694
G1 X24.780 Y-3.393 E0.06694
G1 X24.556 Y-4.232 E0.06694
G1 X24.136 Y-4.993 E0.06694
G1 X23.548 Y-5.632 E0.06694
G1 X22.823 Y-6.110 E0.06694
G1 X22.005 Y-6.402 E0.06694
G1 X21.141 Y-6.489 E0.06694
G1 X20.281 Y-6.367 E0.06694
G1 X19.475 Y-6.043 E0.06694
G1 X18.770 Y-5.535 E0.06694
G1 X18.207 Y-4.874 E0.06694
G1 X17.819 Y-4.097 E0.06694
G1 X17.628 Y-3.249 E0.06694
G1 X17.646 Y-2.381 E0.06694
G1 X17.871 Y-1.542 E0.06694
G1 X18.290 Y-0.781 E0.06694
G1 X18.879 Y-0.143 E0.06694
G1 X19.977 Y0.583 E0.10147
G1 X16.665 Y1.352 E0.26204
G1 X11.332 Y2.229 E0.41653
G1 X5.953 Y2.757 E0.41653
G1 X0.551 Y2.933 E0.41653
G1 X-4.851 Y2.757 E0.41653
G1 X-10.230 Y2.229 E0.41653
G1 X-15.564 Y1.352 E0.41653
G1 X-18.876 Y0.583 E0.26204
G1 X-17.777 Y-0.143 E0.10147
G1 X-17.188 Y-0.781 E0.06694
G1 X-16.769 Y-1.542 E0.06694
G1 X-16.544 Y-2.381 E0.06694
G1 X-16.527 Y-3.249 E0.06694
G1 X-16.718 Y-4.097 E0.06694
G1 X-17.106 Y-4.874 E0.06694
G1 X-17.669 Y-5.535 E0.06694
G1 X-18.373 Y-6.043 E0.06694
G1 X-19.179 Y-6.367 E0.06694
G1 X-20.039 Y-6.489 E0.06694
G1 X-20.903 Y-6.402 E0.06694
G1 X-21.721 Y-6.110 E0.06694
G1 X-22.446 Y-5.632 E0.06694
G1 X-23.035 Y-4.993 E0.06694
G1 X-23.454 Y-4.232 E0.06694
G1 X-23.679 Y-3.393 E0.06694
