; generated by Slic3r 1.2.9 on 2019-03-22 at 14:59:19

; external perimeters extrusion width = 0.40mm
; perimeters extrusion width = 0.40mm
; infill extrusion width = 0.40mm
; solid infill extrusion width = 0.40mm
; top infill extrusion width = 0.40mm

M107
M83
T0
M116
G21 ; set units to millimeters
G90 ; use absolute coordinates
M83 ; use relative distances for extrusion
G1 E-3.50000 F1500.00000
G1 Z0.400 F15000.000
G1 X41.616 Y19.683 F15000.000
G1 Z0.300 F15000.000
G1 E3.50000 F1500.00000
G1 X40.746 Y21.521 E0.15674 F960.000
G1 X40.532 Y21.923 E0.03506
G1 X38.440 Y25.412 E0.31348
G1 X38.188 Y25.790 E0.03506
G1 X35.765 Y29.057 E0.31348
G1 X35.476 Y29.409 E0.03506
G1 X32.744 Y32.423 E0.31348
G1 X32.423 Y32.744 E0.03506
G1 X29.409 Y35.476 E0.31348
G1 X29.057 Y35.765 E0.03506
G1 X25.790 Y38.188 E0.31348
G1 X25.412 Y38.440 E0.03506
G1 X21.923 Y40.532 E0.31348
G1 X21.521 Y40.746 E0.03506
G1 X17.844 Y42.485 E0.31348
G1 X17.424 Y42.659 E0.03506
G1 X13.594 Y44.030 E0.31348
G1 X13.159 Y44.162 E0.03506
G1 X9.213 Y45.150 E0.31348
G1 X8.767 Y45.239 E0.03506
G1 X4.743 Y45.836 E0.31348
G1 X4.290 Y45.880 E0.03506
G1 X0.227 Y46.080 E0.31348
G1 X-0.227 Y46.080 E0.03506
G1 X-4.290 Y45.880 E0.31348
G1 X-4.743 Y45.836 E0.03506
G1 X-8.767 Y45.239 E0.31348
G1 X-9.213 Y45.150 E0.03506
G1 X-13.159 Y44.162 E0.31348
G1 X-13.594 Y44.030 E0.03506
G1 X-17.424 Y42.659 E0.31348
G1 X-17.844 Y42.485 E0.03506
G1 X-21.521 Y40.746 E0.31348
G1 X-21.923 Y40.532 E0.03506
G1 X-25.412 Y38.440 E0.31348
G1 X-25.790 Y38.188 E0.03506
G1 X-29.057 Y35.765 E0.31348
G1 X-29.409 Y35.476 E0.03506
G1 X-32.423 Y32.744 E0.31348
G1 X-32.744 Y32.423 E0.03506
G1 X-35.476 Y29.409 E0.31348
G1 X-35.765 Y29.057 E0.03506
G1 X-38.188 Y25.790 E0.31348
G1 X-38.440 Y25.412 E0.03506
G1 X-40.532 Y21.923 E0.31348
G1 X-40.746 Y21.521 E0.03506
G1 X-42.485 Y17.844 E0.31348
G1 X-42.659 Y17.424 E0.03506
G1 X-44.030 Y13.594 E0.31348
G1 X-44.162 Y13.159 E0.03506
G1 X-45.150 Y9.213 E0.31348
G1 X-45.239 Y8.767 E0.03506
G1 X-45.836 Y4.743 E0.31348
G1 X-45.880 Y4.290 E0.03506
G1 X-46.080 Y0.227 E0.31348
G1 X-46.080 Y-0.227 E0.03506
G1 X-45.880 Y-4.290 E0.31348
G1 X-45.836 Y-4.743 E0.03506
G1 X-45.239 Y-8.767 E0.31348
G1 X-45.150 Y-9.213 E0.03506
G1 X-44.162 Y-13.159 E0.31348
G1 X-44.030 Y-13.594 E0.03506
G1 X-42.659 Y-17.424 E0.31348
G1 X-42.485 Y-17.844 E0.03506
G1 X-40.746 Y-21.521 E0.31348
G1 X-40.532 Y-21.923 E0.03506
G1 X-38.440 Y-25.412 E0.31348
G1 X-38.188 Y-25.790 E0.03506
G1 X-35.765 Y-29.057 E0.31348
G1 X-35.476 Y-29.409 E0.03506
G1 X-32.744 Y-32.423 E0.31348
G1 X-32.423 Y-32.744 E0.03506
G1 X-29.409 Y-35.476 E0.31348
G1 X-29.057 Y-35.765 E0.03506
G1 X-25.790 Y-38.188 E0.31348
G1 X-25.412 Y-38.440 E0.03506
G1 X-21.923 Y-40.532 E0.31348
G1 X-21.521 Y-40.746 E0.03506
G1 X-17.844 Y-42.485 E0.31348
G1 X-17.424 Y-42.659 E0.03506
G1 X-13.594 Y-44.030 E0.31348
G1 X-13.159 Y-44.162 E0.03506
G1 X-9.213 Y-45.150 E0.31348
G1 X-8.767 Y-45.239 E0.03506
G1 X-4.743 Y-45.836 E0.31348
G1 X-4.290 Y-45.880 E0.03506
G1 X-0.227 Y-46.080 E0.31348
G1 X0.378 Y-46.073 E0.04663
G1 X4.290 Y-45.880 E0.30190 F960.000
G1 X4.743 Y-45.836 E0.03506
G1 X8.767 Y-45.239 E0.31348
G1 X9.213 Y-45.150 E0.03506
G1 X13.159 Y-44.162 E0.31348
G1 X13.594 Y-44.030 E0.03506
G1 X17.424 Y-42.659 E0.31348
G1 X17.844 Y-42.485 E0.03506
G1 X21.521 Y-40.746 E0.31348
G1 X21.923 Y-40.532 E0.03506
G1 X25.412 Y-38.440 E0.31348
G1 X25.790 Y-38.188 E0.03506
G1 X29.057 Y-35.765 E0.31348
G1 X29.409 Y-35.476 E0.03506
G1 X32.423 Y-32.744 E0.31348
G1 X32.744 Y-32.423 E0.03506
G1 X35.476 Y-29.409 E0.31348
G1 X35.765 Y-29.057 E0.03506
G1 X38.188 Y-25.790 E0.31348
G1 X38.440 Y-25.412 E0.03506
G1 X40.532 Y-21.923 E0.31348
G1 X40.746 Y-21.521 E0.03506
G1 X42.485 Y-17.844 E0.31348
G1 X42.659 Y-17.424 E0.03506
G1 X44.030 Y-13.594 E0.31348
G1 X44.162 Y-13.159 E0.03506
G1 X45.150 Y-9.213 E0.31348
G1 X45.239 Y-8.767 E0.03506
G1 X45.836 Y-4.743 E0.31348
G1 X45.880 Y-4.290 E0.03506
G1 X46.080 Y-0.227 E0.31348
G1 X46.080 Y0.227 E0.03506
G1 X45.880 Y4.290 E0.31348
G1 X45.836 Y4.743 E0.03506
G1 X45.239 Y8.767 E0.31348
G1 X45.150 Y9.213 E0.03506
G1 X44.162 Y13.159 E0.31348
G1 X44.030 Y13.594 E0.03506
G1 X42.659 Y17.424 E0.31348
G1 X42.485 Y17.844 E0.03506
G1 X41.641 Y19.629 E0.15212
G1 X40.611 Y19.141 F15000.000
G1 X39.598 Y21.263 E0.18119 F960.000
G1 X37.419 Y24.899 E0.32671
G1 X34.689 Y28.580 E0.35313
G1 X31.721 Y31.842 E0.33992
G1 X28.580 Y34.689 E0.32671
G1 X25.042 Y37.323 E0.33992
G1 X21.263 Y39.598 E0.33992
G1 X17.121 Y41.557 E0.35313
G1 X13.129 Y42.986 E0.32671
G1 X8.853 Y44.065 E0.33992
G1 X4.320 Y44.738 E0.35313
G1 X0.086 Y44.946 E0.32671
G1 X-4.320 Y44.738 E0.33992
G1 X-8.684 Y44.099 E0.33992
G1 X-13.129 Y42.986 E0.35313
G1 X-17.121 Y41.557 E0.32671
G1 X-21.112 Y39.679 E0.33992
G1 X-25.042 Y37.323 E0.35313
G1 X-28.447 Y34.798 E0.32671
G1 X-31.721 Y31.842 E0.33992
G1 X-34.689 Y28.580 E0.33992
G1 X-37.419 Y24.899 E0.35313
G1 X-39.598 Y21.263 E0.32671
G1 X-41.492 Y17.279 E0.33992
G1 X-42.986 Y13.129 E0.33992
G1 X-44.099 Y8.684 E0.35313
G1 X-44.721 Y4.491 E0.32671
G1 X-44.946 Y0.086 E0.33992
G1 X-44.721 Y-4.491 E0.35313
G1 X-44.065 Y-8.853 E0.33992
G1 X-43.035 Y-12.965 E0.32671
G1 X-41.557 Y-17.121 E0.33992
G1 X-39.598 Y-21.263 E0.35313
G1 X-37.419 Y-24.899 E0.32671
G1 X-34.798 Y-28.447 E0.33992
G1 X-31.842 Y-31.721 E0.33992
G1 X-28.447 Y-34.798 E0.35313
G1 X-25.042 Y-37.323 E0.32671
G1 X-21.263 Y-39.598 E0.33992
G1 X-17.121 Y-41.557 E0.35313
G1 X-13.129 Y-42.986 E0.32671
G1 X-8.853 Y-44.065 E0.33992
G1 X-4.320 Y-44.738 E0.35313
G1 X-0.086 Y-44.946 E0.32671
G1 X0.322 Y-44.934 E0.03141
G1 X4.491 Y-44.721 E0.32173 F960.000
G1 X8.684 Y-44.099 E0.32671
G1 X12.965 Y-43.035 E0.33992
G1 X17.121 Y-41.557 E0.33992
G1 X21.263 Y-39.598 E0.35313
G1 X25.042 Y-37.323 E0.33992
G1 X28.447 Y-34.798 E0.32671
G1 X31.721 Y-31.842 E0.33992
G1 X34.689 Y-28.580 E0.33992
G1 X37.419 Y-24.899 E0.35313
G1 X39.598 Y-21.263 E0.32671
G1 X41.492 Y-17.279 E0.33992
G1 X42.986 Y-13.129 E0.33992
G1 X44.065 Y-8.853 E0.33992
G1 X44.738 Y-4.320 E0.35313
G1 X44.946 Y-0.086 E0.32671
G1 X44.738 Y4.320 E0.33992
G1 X44.099 Y8.684 E0.33992
G1 X42.986 Y13.129 E0.35313
G1 X41.557 Y17.121 E0.32671
G1 X40.637 Y19.087 E0.16732
G1 X40.062 Y18.815 F15000.000
G1 X39.045 Y20.950 E0.18220 F960.000
G1 X36.882 Y24.559 E0.32430
G1 X34.208 Y28.164 E0.34592
G1 X31.282 Y31.382 E0.33511
G1 X28.164 Y34.208 E0.32430
G1 X24.676 Y36.804 E0.33511
G1 X20.826 Y39.111 E0.34592
G1 X16.892 Y40.964 E0.33511
G1 X12.795 Y42.423 E0.33511
G1 X8.713 Y43.445 E0.32430
G1 X4.273 Y44.104 E0.34592
G1 X-0.070 Y44.310 E0.33511
G1 X-4.413 Y44.090 E0.33511
G1 X-8.576 Y43.473 E0.32430
G1 X-12.930 Y42.382 E0.34592
G1 X-16.892 Y40.964 E0.32430
G1 X-20.826 Y39.111 E0.33511
G1 X-24.676 Y36.804 E0.34592
G1 X-28.056 Y34.297 E0.32430
G1 X-31.282 Y31.382 E0.33511
G1 X-34.208 Y28.164 E0.33511
G1 X-36.882 Y24.559 E0.34592
G1 X-39.111 Y20.826 E0.33511
G1 X-40.910 Y17.022 E0.32430
G1 X-42.382 Y12.930 E0.33511
G1 X-43.473 Y8.576 E0.34592
G1 X-44.090 Y4.413 E0.32430
G1 X-44.310 Y0.070 E0.33511
G1 X-44.090 Y-4.413 E0.34592
G1 X-43.445 Y-8.713 E0.33511
G1 X-42.423 Y-12.795 E0.32430
G1 X-40.964 Y-16.892 E0.33511
G1 X-39.045 Y-20.950 E0.34592
G1 X-36.882 Y-24.559 E0.32430
G1 X-34.297 Y-28.056 E0.33511
G1 X-31.382 Y-31.282 E0.33511
G1 X-28.056 Y-34.297 E0.34592
G1 X-24.559 Y-36.882 E0.33511
G1 X-20.950 Y-39.045 E0.32430
G1 X-17.022 Y-40.910 E0.33511
G1 X-12.795 Y-42.423 E0.34592
G1 X-8.713 Y-43.445 E0.32430
G1 X-4.413 Y-44.090 E0.33511
G1 X0.070 Y-44.310 E0.34592
G1 X4.413 Y-44.090 E0.33511 F960.000
G1 X8.576 Y-43.473 E0.32430
G1 X12.795 Y-42.423 E0.33511
G1 X16.892 Y-40.964 E0.33511
G1 X20.950 Y-39.045 E0.34592
G1 X24.676 Y-36.804 E0.33511
G1 X28.056 Y-34.297 E0.32430
G1 X31.282 Y-31.382 E0.33511
G1 X34.208 Y-28.164 E0.33511
G1 X36.882 Y-24.559 E0.34592
G1 X39.045 Y-20.950 E0.32430
G1 X40.910 Y-17.022 E0.33511
G1 X42.382 Y-12.930 E0.33511
G1 X43.445 Y-8.713 E0.33511
G1 X44.104 Y-4.273 E0.34592
G1 X44.310 Y0.070 E0.33511
G1 X44.090 Y4.413 E0.33511
G1 X43.473 Y8.576 E0.32430
G1 X42.382 Y12.930 E0.34592
G1 X40.964 Y16.892 E0.32430
G1 X40.088 Y18.761 E0.15909
G1 X39.513 Y18.489 F15000.000
G1 X38.492 Y20.636 E0.18322 F960.000
G1 X36.344 Y24.219 E0.32190
G1 X33.726 Y27.749 E0.33871
G1 X30.844 Y30.921 E0.33031
G1 X27.749 Y33.726 E0.32190
G1 X24.310 Y36.284 E0.33030
G1 X20.636 Y38.492 E0.33030
G1 X16.663 Y40.371 E0.33871
G1 X12.730 Y41.778 E0.32190
G1 X8.574 Y42.825 E0.33030
G1 X4.227 Y43.470 E0.33871
G1 X0.055 Y43.675 E0.32190
G1 X-4.227 Y43.470 E0.33030
G1 X-8.467 Y42.846 E0.33030
G1 X-12.730 Y41.778 E0.33871
G1 X-16.764 Y40.329 E0.33030
G1 X-20.540 Y38.543 E0.32190
G1 X-24.310 Y36.284 E0.33871
G1 X-27.665 Y33.796 E0.32190
G1 X-30.844 Y30.921 E0.33030
G1 X-33.726 Y27.749 E0.33030
G1 X-36.344 Y24.219 E0.33871
G1 X-38.492 Y20.636 E0.32190
G1 X-40.329 Y16.764 E0.33030
G1 X-41.778 Y12.730 E0.33031
G1 X-42.846 Y8.467 E0.33871
G1 X-43.459 Y4.335 E0.32190
G1 X-43.675 Y0.055 E0.33030
G1 X-43.459 Y-4.335 E0.33871
G1 X-42.846 Y-8.467 E0.32190
G1 X-41.810 Y-12.626 E0.33030
G1 X-40.371 Y-16.663 E0.33030
G1 X-38.492 Y-20.636 E0.33871
G1 X-36.344 Y-24.219 E0.32190
G1 X-33.796 Y-27.665 E0.33030
G1 X-30.921 Y-30.844 E0.33030
G1 X-27.665 Y-33.796 E0.33871
G1 X-24.310 Y-36.284 E0.32190
G1 X-20.636 Y-38.492 E0.33030
G1 X-16.663 Y-40.371 E0.33871
G1 X-12.626 Y-41.810 E0.33030
G1 X-8.574 Y-42.825 E0.32190
G1 X-4.227 Y-43.470 E0.33871
G1 X-0.055 Y-43.675 E0.32190
G1 X0.259 Y-43.665 E0.02420
G1 X4.335 Y-43.459 E0.31452 F960.000
G1 X8.467 Y-42.846 E0.32190
G1 X12.626 Y-41.810 E0.33030
G1 X16.764 Y-40.329 E0.33871
G1 X20.636 Y-38.492 E0.33030
G1 X24.310 Y-36.284 E0.33030
G1 X27.665 Y-33.796 E0.32190
G1 X30.844 Y-30.921 E0.33030
G1 X33.726 Y-27.749 E0.33030
G1 X36.344 Y-24.219 E0.33871
G1 X38.492 Y-20.636 E0.32190
G1 X40.329 Y-16.764 E0.33030
G1 X41.778 Y-12.730 E0.33030
G1 X42.846 Y-8.467 E0.33871
G1 X43.470 Y-4.227 E0.33030
G1 X43.675 Y-0.055 E0.32190
G1 X43.470 Y4.227 E0.33030
G1 X42.846 Y8.467 E0.33030
G1 X41.778 Y12.730 E0.33871
G1 X40.371 Y16.663 E0.32190
G1 X39.539 Y18.435 E0.15086
G1 X38.964 Y18.163 F15000.000
G1 X37.939 Y20.323 E0.18424 F960.000
G1 X35.807 Y23.879 E0.31949
G1 X33.245 Y27.334 E0.33150
G1 X30.406 Y30.461 E0.32550
G1 X27.334 Y33.245 E0.31949
G1 X23.944 Y35.764 E0.32550
G1 X20.323 Y37.939 E0.32550
G1 X16.434 Y39.778 E0.33150
G1 X12.456 Y41.197 E0.32550
G1 X8.435 Y42.204 E0.31949
G1 X4.180 Y42.836 E0.33150
G1 X0.039 Y43.039 E0.31949
G1 X-4.180 Y42.836 E0.32550
G1 X-8.358 Y42.220 E0.32550
G1 X-12.531 Y41.174 E0.33150
G1 X-16.506 Y39.748 E0.32550
G1 X-20.254 Y37.975 E0.31949
G1 X-23.879 Y35.807 E0.32550
G1 X-27.334 Y33.245 E0.33150
G1 X-30.406 Y30.461 E0.31949
G1 X-33.245 Y27.334 E0.32550
G1 X-35.807 Y23.879 E0.33150
G1 X-37.939 Y20.323 E0.31949
G1 X-39.748 Y16.506 E0.32550
G1 X-41.197 Y12.456 E0.33150
G1 X-42.204 Y8.435 E0.31949
G1 X-42.828 Y4.257 E0.32550
G1 X-43.039 Y0.039 E0.32550
G1 X-42.828 Y-4.257 E0.33150
G1 X-42.204 Y-8.435 E0.32550
G1 X-41.197 Y-12.456 E0.31949
G1 X-39.778 Y-16.434 E0.32550
G1 X-37.939 Y-20.323 E0.33150
G1 X-35.807 Y-23.879 E0.31949
G1 X-33.294 Y-27.273 E0.32550
G1 X-30.461 Y-30.406 E0.32550
G1 X-27.273 Y-33.294 E0.33150
G1 X-23.944 Y-35.764 E0.31949
G1 X-20.323 Y-37.939 E0.32550
G1 X-16.506 Y-39.748 E0.32550
G1 X-12.456 Y-41.197 E0.33150
G1 X-8.435 Y-42.204 E0.31949
G1 X-4.257 Y-42.828 E0.32550
G1 X0.039 Y-43.039 E0.33150
G1 X4.257 Y-42.828 E0.32550 F960.000
G1 X8.435 Y-42.204 E0.32550
G1 X12.456 Y-41.197 E0.31949
G1 X16.506 Y-39.748 E0.33150
G1 X20.323 Y-37.939 E0.32550
G1 X23.944 Y-35.764 E0.32550
G1 X27.273 Y-33.294 E0.31949
G1 X30.406 Y-30.461 E0.32550
G1 X33.245 Y-27.334 E0.32550
G1 X35.807 Y-23.879 E0.33150
G1 X37.939 Y-20.323 E0.31949
G1 X39.748 Y-16.506 E0.32550
G1 X41.174 Y-12.531 E0.32550
G1 X42.204 Y-8.435 E0.32550
G1 X42.836 Y-4.180 E0.33150
G1 X43.039 Y-0.039 E0.31949
G1 X42.836 Y4.180 E0.32550
G1 X42.220 Y8.358 E0.32550
G1 X41.174 Y12.531 E0.33150
G1 X39.778 Y16.434 E0.31949
G1 X38.990 Y18.109 E0.14264
G1 X38.415 Y17.837 F15000.000
G1 X37.385 Y20.009 E0.18526 F960.000
G1 X35.270 Y23.539 E0.31709
G1 X32.763 Y26.919 E0.32429
G1 X29.967 Y30.000 E0.32069
G1 X26.919 Y32.763 E0.31709
G1 X23.578 Y35.244 E0.32069
G1 X20.009 Y37.385 E0.32069
G1 X16.205 Y39.185 E0.32429
G1 X12.331 Y40.571 E0.31709
G1 X8.295 Y41.584 E0.32069
G1 X4.133 Y42.201 E0.32429
G1 X0.023 Y42.403 E0.31709
G1 X-4.133 Y42.201 E0.32069
G1 X-8.250 Y41.593 E0.32069
G1 X-12.331 Y40.571 E0.32429
G1 X-16.249 Y39.167 E0.32069
G1 X-19.968 Y37.407 E0.31709
G1 X-23.578 Y35.244 E0.32429
G1 X-26.919 Y32.763 E0.32069
G1 X-30.000 Y29.967 E0.32069
G1 X-32.763 Y26.919 E0.31709
G1 X-35.270 Y23.539 E0.32429
G1 X-37.407 Y19.968 E0.32069
G1 X-39.167 Y16.249 E0.31709
G1 X-40.571 Y12.331 E0.32069
G1 X-41.593 Y8.250 E0.32429
G1 X-42.197 Y4.180 E0.31709
G1 X-42.403 Y0.023 E0.32069
G1 X-42.197 Y-4.180 E0.32429
G1 X-41.584 Y-8.295 E0.32069
G1 X-40.584 Y-12.287 E0.31709
G1 X-39.185 Y-16.205 E0.32069
G1 X-37.385 Y-20.009 E0.32429
G1 X-35.270 Y-23.539 E0.31709
G1 X-32.793 Y-26.882 E0.32069
G1 X-30.000 Y-29.967 E0.32069
G1 X-26.882 Y-32.793 E0.32429
G1 X-23.578 Y-35.244 E0.31709
G1 X-20.009 Y-37.385 E0.32069
G1 X-16.205 Y-39.185 E0.32429
G1 X-12.287 Y-40.584 E0.32069
G1 X-8.295 Y-41.584 E0.31709
G1 X-4.133 Y-42.201 E0.32429
G1 X-0.023 Y-42.403 E0.31709
G1 X0.197 Y-42.395 E0.01699
G1 X4.180 Y-42.197 E0.30731 F960.000
G1 X8.250 Y-41.593 E0.31709
G1 X12.287 Y-40.584 E0.32069
G1 X16.249 Y-39.167 E0.32429
G1 X20.009 Y-37.385 E0.32069
G1 X23.578 Y-35.244 E0.32069
G1 X26.882 Y-32.793 E0.31709
G1 X29.967 Y-30.000 E0.32069
G1 X32.763 Y-26.919 E0.32069
G1 X35.270 Y-23.539 E0.32429
G1 X37.385 Y-20.009 E0.31709
G1 X39.167 Y-16.249 E0.32069
G1 X40.571 Y-12.331 E0.32069
G1 X41.584 Y-8.295 E0.32069
G1 X42.201 Y-4.133 E0.32429
G1 X42.403 Y-0.023 E0.31709
G1 X42.201 Y4.133 E0.32069
G1 X41.593 Y8.250 E0.32069
G1 X40.571 Y12.331 E0.32429
G1 X39.185 Y16.205 E0.31709
G1 X38.441 Y17.783 E0.13441
G1 X37.866 Y17.511 F15000.000
G1 X36.832 Y19.696 E0.18628 F960.000
G1 X34.733 Y23.198 E0.31468
G1 X32.282 Y26.503 E0.31708
G1 X29.529 Y29.540 E0.31588
G1 X26.491 Y32.292 E0.31588
G1 X23.211 Y34.724 E0.31468
G1 X19.696 Y36.832 E0.31588
G1 X15.977 Y38.591 E0.31708
G1 X12.117 Y39.972 E0.31588
G1 X8.156 Y40.964 E0.31468
G1 X4.086 Y41.567 E0.31708
G1 X-0.008 Y41.768 E0.31588
G1 X-4.086 Y41.567 E0.31468
G1 X-8.141 Y40.967 E0.31588
G1 X-12.132 Y39.967 E0.31708
G1 X-15.977 Y38.591 E0.31468
G1 X-19.682 Y36.840 E0.31588
G1 X-23.198 Y34.733 E0.31588
G1 X-26.503 Y32.282 E0.31708
G1 X-29.540 Y29.529 E0.31588
G1 X-32.282 Y26.503 E0.31468
G1 X-34.733 Y23.198 E0.31708
G1 X-36.832 Y19.696 E0.31468
G1 X-38.585 Y15.991 E0.31588
G1 X-39.972 Y12.117 E0.31708
G1 X-40.964 Y8.156 E0.31468
G1 X-41.566 Y4.102 E0.31588
G1 X-41.768 Y0.008 E0.31588
G1 X-41.566 Y-4.102 E0.31708
G1 X-40.964 Y-8.156 E0.31588
G1 X-39.972 Y-12.117 E0.31468
G1 X-38.591 Y-15.977 E0.31588
G1 X-36.832 Y-19.696 E0.31708
G1 X-34.733 Y-23.198 E0.31468
G1 X-32.292 Y-26.491 E0.31588
G1 X-29.540 Y-29.529 E0.31588
G1 X-26.491 Y-32.292 E0.31708
G1 X-23.211 Y-34.724 E0.31468
G1 X-19.696 Y-36.832 E0.31588
G1 X-15.991 Y-38.585 E0.31588
G1 X-12.117 Y-39.972 E0.31708
G1 X-8.156 Y-40.964 E0.31468
G1 X-4.102 Y-41.566 E0.31588
G1 X0.008 Y-41.768 E0.31708
G1 X4.102 Y-41.566 E0.31588 F960.000
G1 X8.141 Y-40.967 E0.31468
G1 X12.117 Y-39.972 E0.31588
G1 X15.991 Y-38.585 E0.31708
G1 X19.696 Y-36.832 E0.31588
G1 X23.211 Y-34.724 E0.31588
G1 X26.491 Y-32.292 E0.31468
G1 X29.529 Y-29.540 E0.31588
G1 X32.282 Y-26.503 E0.31588
G1 X34.733 Y-23.198 E0.31708
G1 X36.832 Y-19.696 E0.31468
G1 X38.585 Y-15.991 E0.31588
G1 X39.967 Y-12.132 E0.31588
G1 X40.964 Y-8.156 E0.31588
G1 X41.567 Y-4.086 E0.31708
G1 X41.768 Y0.008 E0.31588
G1 X41.567 Y4.086 E0.31468
G1 X40.967 Y8.141 E0.31588
G1 X39.967 Y12.132 E0.31708
G1 X38.591 Y15.977 E0.31468
G1 X37.892 Y17.457 E0.12618
G1 E-3.50000 F1500.00000
G1 Z0.700 F15000.000
G1 X1.689 Y34.170 F15000.000
G1 Z0.300 F15000.000
G1 E3.50000 F1500.00000
G1 X1.819 Y34.743 E0.04528 F600.000
G1 X1.809 Y35.331 E0.04539
G1 X1.658 Y35.901 E0.04539
