; generated by Slic3r 1.2.9 on 2019-03-22 at 16:52:22

; external perimeters extrusion width = 0.40mm
; perimeters extrusion width = 0.40mm
; infill extrusion width = 0.40mm
; solid infill extrusion width = 0.40mm
; top infill extrusion width = 0.40mm

M107
M83
T0
M116
G21 ; set units to millimeters
G90 ; use absolute coordinates
M83 ; use relative distances for extrusion
G1 E-3.50000 F1500.00000
G1 Z0.400 F15000.000
G1 X-24.372 Y-30.204 F15000.000
G1 Z0.300 F15000.000
G1 E3.50000 F1500.00000
G1 X14.423 Y-61.508 E3.84165 F960.000
G1 X16.130 Y-62.377 E0.14761
G1 X18.042 Y-62.481 E0.14761
G1 X19.834 Y-61.804 E0.14761
G1 X21.016 Y-60.717 E0.12375 F960.000
G1 X24.239 Y-56.493 E0.40943
G1 X27.137 Y-52.269 E0.39480
G1 X29.943 Y-47.699 E0.41328
G1 X33.142 Y-41.728 E0.52205
G1 X35.750 Y-36.029 E0.48301
G1 X37.848 Y-30.617 E0.44728
G1 X38.239 Y-29.516 E0.09009
G1 X40.026 Y-23.795 E0.46185
G1 X41.646 Y-17.197 E0.52364
G1 X42.790 Y-10.791 E0.50149
G1 X43.504 Y-4.616 E0.47905
G1 X43.854 Y1.882 E0.50149
G1 X43.795 Y8.389 E0.50149
G1 X43.297 Y15.169 E0.52392
G1 X42.453 Y21.328 E0.47909
G1 X42.271 Y22.305 E0.07657
G1 X41.103 Y28.020 E0.44952
G1 X39.578 Y33.732 E0.45562
G1 X37.332 Y40.440 E0.54515
G1 X34.984 Y46.195 E0.47906
G1 X32.672 Y51.063 E0.41525
G1 X30.123 Y55.781 E0.41329
G1 X27.359 Y60.318 E0.40943
G1 X26.044 Y61.711 E0.14761
G1 X24.279 Y62.454 E0.14761
G1 X22.364 Y62.419 E0.14761
G1 X20.885 Y61.794 E0.12375
G1 X-40.115 Y22.331 E5.59892
G1 X-41.473 Y20.981 E0.14761
G1 X-42.226 Y18.682 E0.18646
G1 X-43.836 Y-12.035 E2.37045
G1 X-43.539 Y-13.927 E0.14761
G1 X-42.118 Y-15.885 E0.18646
G1 X-24.419 Y-30.167 E1.75264
G1 X-23.703 Y-29.280 F15000.000
G1 X16.286 Y-61.547 E3.95992 F960.000
G1 X19.215 Y-61.196 E0.22729
G1 X23.273 Y-55.886 E0.51505 F960.000
G1 X26.272 Y-51.511 E0.40874
G1 X29.047 Y-46.974 E0.40985
G1 X32.083 Y-41.304 E0.49567
G1 X34.736 Y-35.506 E0.49135
G1 X36.792 Y-30.186 E0.43957
G1 X37.141 Y-29.209 E0.07992
G1 X38.954 Y-23.404 E0.46873
G1 X40.515 Y-17.049 E0.50429
G1 X41.651 Y-10.714 E0.49598
G1 X42.388 Y-4.321 E0.49598
G1 X42.719 Y1.997 E0.48752
G1 X42.655 Y8.432 E0.49598
G1 X42.175 Y14.960 E0.50444
G1 X41.318 Y21.222 E0.48704
G1 X41.156 Y22.071 E0.06665
G1 X40.016 Y27.674 E0.44067
G1 X38.463 Y33.490 E0.46389
G1 X36.338 Y39.851 E0.51685
G1 X33.869 Y45.903 E0.50368
G1 X31.624 Y50.613 E0.40213
G1 X29.099 Y55.277 E0.40875
G1 X25.618 Y60.982 E0.51505
G1 X22.742 Y61.638 E0.22729
G1 X-40.663 Y20.619 E5.81969
G1 X-41.323 Y17.919 E0.21425
G1 X-39.271 Y14.308 E0.32007
G1 X-38.254 Y11.919 E0.20004
G1 X-37.523 Y9.466 E0.19725
G1 X-37.064 Y6.875 E0.20283
G1 X-36.906 Y4.320 E0.19726
G1 X-37.040 Y1.728 E0.20004
G1 X-37.476 Y-0.868 E0.20283
G1 X-38.184 Y-3.328 E0.19726
G1 X-39.179 Y-5.725 E0.20004
G1 X-40.459 Y-8.025 E0.20283
G1 X-42.858 Y-11.371 E0.31728
G1 X-42.484 Y-14.125 E0.21425
G1 X-23.750 Y-29.242 E1.85515
G1 X-23.350 Y-28.747 F15000.000
G1 X16.477 Y-60.884 E3.94388 F960.000
G1 X18.873 Y-60.596 E0.18596 F960.000
G1 X22.754 Y-55.520 E0.49248
G1 X25.734 Y-51.172 E0.40621
G1 X28.491 Y-46.666 E0.40711
G1 X31.509 Y-41.031 E0.49265
G1 X34.154 Y-35.251 E0.48984
G1 X36.198 Y-29.961 E0.43703
G1 X36.536 Y-29.014 E0.07751
G1 X38.368 Y-23.138 E0.47430
G1 X39.873 Y-17.014 E0.48597
G1 X41.008 Y-10.720 E0.49290
G1 X41.753 Y-4.277 E0.49982
G1 X42.085 Y2.110 E0.49290
G1 X42.019 Y8.416 E0.48598
G1 X41.554 Y14.794 E0.49290
G1 X40.676 Y21.205 E0.49860
G1 X39.399 Y27.520 E0.49654
G1 X37.826 Y33.401 E0.46921
G1 X35.738 Y39.640 E0.50697
G1 X33.324 Y45.562 E0.49289
G1 X31.054 Y50.332 E0.40711
G1 X28.544 Y54.967 E0.40621
G1 X25.215 Y60.422 E0.49248
G1 X22.862 Y60.958 E0.18596
G1 X-40.105 Y20.223 E5.77955
G1 X-40.645 Y18.013 E0.17530
G1 X-38.700 Y14.590 E0.30338
G1 X-37.655 Y12.136 E0.20563
G1 X-36.896 Y9.578 E0.20563
G1 X-36.432 Y6.950 E0.20563
G1 X-36.270 Y4.323 E0.20284
G1 X-36.407 Y1.658 E0.20563
G1 X-36.855 Y-1.009 E0.20841
G1 X-37.595 Y-3.572 E0.20563
G1 X-38.606 Y-6.003 E0.20284
G1 X-39.921 Y-8.365 E0.20841
G1 X-42.194 Y-11.536 E0.30060
G1 X-41.888 Y-13.790 E0.17530
G1 X-23.397 Y-28.710 E1.83104
G1 X-22.998 Y-28.215 F15000.000
G1 X16.667 Y-60.221 E3.92784 F960.000
G1 X18.531 Y-59.997 E0.14464
G1 X22.234 Y-55.153 E0.46992 F960.000
G1 X25.196 Y-50.833 E0.40367
G1 X27.935 Y-46.357 E0.40437
G1 X30.935 Y-40.757 E0.48963
G1 X33.572 Y-34.995 E0.48832
G1 X35.613 Y-29.710 E0.43666
G1 X35.931 Y-28.818 E0.07294
G1 X37.735 Y-23.044 E0.46623
G1 X39.267 Y-16.804 E0.49513
G1 X40.391 Y-10.548 E0.48982
G1 X41.113 Y-4.304 E0.48444
G1 X41.448 Y2.043 E0.48982
G1 X41.384 Y8.399 E0.48982
G1 X40.913 Y14.807 E0.49521
G1 X40.061 Y21.032 E0.48415
G1 X39.909 Y21.821 E0.06195
G1 X38.783 Y27.365 E0.43598
G1 X37.240 Y33.143 E0.46088
G1 X35.139 Y39.428 E0.51072
G1 X32.714 Y45.372 E0.49473
G1 X30.483 Y50.051 E0.39946
G1 X27.989 Y54.657 E0.40367
G1 X24.812 Y59.862 E0.46992
G1 X22.982 Y60.279 E0.14464
G1 X-39.548 Y19.826 E5.73941
G1 X-39.968 Y18.108 E0.13634
G1 X-38.130 Y14.873 E0.28670
G1 X-37.056 Y12.352 E0.21122
G1 X-36.276 Y9.724 E0.21121
G1 X-35.800 Y7.025 E0.21121
G1 X-35.633 Y4.326 E0.20843
G1 X-35.775 Y1.589 E0.21121
G1 X-36.234 Y-1.150 E0.21400
G1 X-36.982 Y-3.749 E0.20843
G1 X-38.033 Y-6.280 E0.21122
G1 X-39.384 Y-8.706 E0.21400
G1 X-41.530 Y-11.700 E0.28391
G1 X-41.292 Y-13.454 E0.13634
G1 X-23.045 Y-28.177 E1.80694
G1 X-22.645 Y-27.683 F15000.000
G1 X16.858 Y-59.558 E3.91180 F960.000
G1 X18.189 Y-59.398 E0.10331 F960.000
G1 X21.691 Y-54.820 E0.44418
G1 X24.636 Y-50.529 E0.40114
G1 X27.379 Y-46.049 E0.40480
G1 X30.339 Y-40.528 E0.48275
G1 X32.990 Y-34.739 E0.49067
G1 X35.009 Y-29.511 E0.43196
G1 X35.326 Y-28.622 E0.07270
G1 X37.139 Y-22.816 E0.46877
G1 X38.633 Y-16.731 E0.48291
G1 X39.753 Y-10.515 E0.48675
G1 X40.485 Y-4.191 E0.49059
G1 X40.814 Y2.116 E0.48675
G1 X40.748 Y8.382 E0.48290
G1 X40.287 Y14.681 E0.48675
G1 X39.425 Y20.980 E0.48993
G1 X38.166 Y27.210 E0.48985
G1 X36.614 Y33.017 E0.46317
G1 X34.539 Y39.217 E0.50387
G1 X32.154 Y45.065 E0.48674
G1 X29.913 Y49.770 E0.40163
G1 X27.434 Y54.347 E0.40114
G1 X24.410 Y59.302 E0.44735
G1 X23.103 Y59.600 E0.10331
G1 X-38.990 Y19.430 E5.69927
G1 X-39.290 Y18.202 E0.09739
G1 X-37.560 Y15.156 E0.27002
G1 X-36.457 Y12.568 E0.21680
G1 X-35.656 Y9.871 E0.21680
G1 X-35.167 Y7.101 E0.21680
G1 X-34.997 Y4.329 E0.21401
G1 X-35.142 Y1.519 E0.21680
G1 X-35.605 Y-1.255 E0.21680
G1 X-36.393 Y-3.994 E0.21959
G1 X-37.460 Y-6.558 E0.21402
G1 X-38.826 Y-9.017 E0.21680
G1 X-40.866 Y-11.865 E0.27002
G1 X-40.696 Y-13.118 E0.09739
G1 X-22.692 Y-27.645 E1.78284
G1 X-22.293 Y-27.150 F15000.000
G1 X17.048 Y-58.895 E3.89577 F960.000
G1 X17.847 Y-58.799 E0.06199
G1 X21.195 Y-54.421 E0.42479 F960.000
G1 X24.121 Y-50.155 E0.39860
G1 X26.823 Y-45.741 E0.39889
G1 X29.788 Y-40.210 E0.48359
G1 X32.407 Y-34.484 E0.48529
G1 X34.419 Y-29.274 E0.43035
G1 X34.721 Y-28.427 E0.06936
G1 X36.516 Y-22.683 E0.46372
G1 X38.020 Y-16.559 E0.48596
G1 X39.130 Y-10.382 E0.48367
G1 X39.848 Y-4.178 E0.48136
G1 X40.178 Y2.090 E0.48367
G1 X40.112 Y8.396 E0.48598
G1 X39.651 Y14.655 E0.48367
G1 X38.803 Y20.842 E0.48126
G1 X38.663 Y21.571 E0.05725
G1 X37.550 Y27.056 E0.43130
G1 X36.016 Y32.796 E0.45788
G1 X33.940 Y39.005 E0.50459
G1 X31.558 Y44.842 E0.48577
G1 X29.343 Y49.489 E0.39679
G1 X26.880 Y54.037 E0.39860
G1 X24.007 Y58.742 E0.42479
G1 X23.223 Y58.920 E0.06199
G1 X-38.433 Y19.034 E5.65913
G1 X-38.613 Y18.297 E0.05843
G1 X-36.989 Y15.439 E0.25333
G1 X-35.859 Y12.784 E0.22239
G1 X-35.037 Y10.018 E0.22239
G1 X-34.535 Y7.176 E0.22239
G1 X-34.360 Y4.332 E0.21960
G1 X-34.509 Y1.450 E0.22239
G1 X-34.992 Y-1.432 E0.22517
G1 X-35.792 Y-4.204 E0.22239
G1 X-36.902 Y-6.868 E0.22239
G1 X-38.289 Y-9.358 E0.21960
G1 X-40.202 Y-12.030 E0.25333
G1 X-40.100 Y-12.782 E0.05843
G1 X-22.340 Y-27.113 E1.75874
G1 X-21.941 Y-26.618 F15000.000
G1 X17.239 Y-58.232 E3.87973 F960.000
G1 X17.505 Y-58.200 E0.02066 F960.000
G1 X20.676 Y-54.054 E0.40222
G1 X23.579 Y-49.823 E0.39543
G1 X26.263 Y-45.440 E0.39609
G1 X29.214 Y-39.936 E0.48127
G1 X31.829 Y-34.219 E0.48451
G1 X33.820 Y-29.061 E0.42613
G1 X34.117 Y-28.231 E0.06788
G1 X35.909 Y-22.494 E0.46323
G1 X37.394 Y-16.447 E0.47985
G1 X38.500 Y-10.299 E0.48136
G1 X39.216 Y-4.105 E0.48059
G1 X39.543 Y2.123 E0.48059
G1 X39.477 Y8.349 E0.47982
G1 X39.021 Y14.568 E0.48059
G1 X38.173 Y20.755 E0.48126
G1 X36.933 Y26.901 E0.48317
G1 X35.402 Y32.632 E0.45713
G1 X33.340 Y38.794 E0.50077
G1 X30.984 Y44.568 E0.48060
G1 X28.773 Y49.209 E0.39615
G1 X26.325 Y53.727 E0.39606
G1 X23.604 Y58.182 E0.40222
G1 X23.343 Y58.241 E0.02066
G1 X-37.875 Y18.637 E5.61899
G1 X-37.935 Y18.392 E0.01948
G1 X-36.435 Y15.754 E0.23386
G1 X-35.272 Y13.034 E0.22797
G1 X-34.417 Y10.164 E0.23076
G1 X-33.903 Y7.251 E0.22797
G1 X-33.723 Y4.335 E0.22519
G1 X-33.876 Y1.380 E0.22797
G1 X-34.364 Y-1.537 E0.22797
G1 X-35.192 Y-4.415 E0.23076
G1 X-36.330 Y-7.145 E0.22797
G1 X-37.770 Y-9.729 E0.22797
G1 X-39.538 Y-12.195 E0.23386
G1 X-39.504 Y-12.446 E0.01948
G1 X-21.987 Y-26.580 E1.73464
G1 X-21.568 Y-26.061 F15000.000
G1 X17.274 Y-57.402 E3.84634 F720.000
G1 X20.133 Y-53.666 E0.36256
G1 X23.020 Y-49.456 E0.39340 F720.000
G1 X25.686 Y-45.104 E0.39331
G1 X28.613 Y-39.644 E0.47743
G1 X31.212 Y-33.964 E0.48134
G1 X33.195 Y-28.826 E0.42445
G1 X33.482 Y-28.022 E0.06579
G1 X35.264 Y-22.319 E0.46047
G1 X36.742 Y-16.303 E0.47740
G1 X37.838 Y-10.207 E0.47736
G1 X38.550 Y-4.054 E0.47736
G1 X38.875 Y2.132 E0.47736
G1 X38.810 Y8.326 E0.47736
G1 X38.356 Y14.504 E0.47736
G1 X37.515 Y20.642 E0.47750
G1 X37.385 Y21.316 E0.05286
G1 X36.284 Y26.744 E0.42684
G1 X34.764 Y32.435 E0.45396
G1 X32.712 Y38.567 E0.49829
G1 X30.371 Y44.302 E0.47741
G1 X28.176 Y48.909 E0.39331
G1 X25.744 Y53.398 E0.39340
G1 X23.291 Y57.412 E0.36256
G1 X-37.129 Y18.325 E5.54576
G1 X-35.827 Y16.035 E0.20298
G1 X-34.636 Y13.245 E0.23385
G1 X-33.770 Y10.336 E0.23385
G1 X-33.240 Y7.348 E0.23385
G1 X-33.053 Y4.320 E0.23385
G1 X-33.212 Y1.289 E0.23385
G1 X-33.714 Y-1.703 E0.23385
G1 X-34.553 Y-4.619 E0.23385
G1 X-35.719 Y-7.421 E0.23385
G1 X-37.195 Y-10.072 E0.23385
G1 X-38.729 Y-12.213 E0.20298
G1 X-21.615 Y-26.023 E1.69480
G1 X-21.195 Y-25.917 F15000.000
G1 X-1.466 Y-41.464 F15000.000
G1 X17.166 Y-56.498 E1.84498 F720.000
G1 X19.618 Y-53.293 E0.31103
G1 X22.487 Y-49.110 E0.39086 F720.000
G1 X25.134 Y-44.787 E0.39064
G1 X28.044 Y-39.361 E0.47448
G1 X30.626 Y-33.717 E0.47831
G1 X32.599 Y-28.605 E0.42234
G1 X32.879 Y-27.820 E0.06419
G1 X34.651 Y-22.148 E0.45796
G1 X36.120 Y-16.171 E0.47435
G1 X37.209 Y-10.114 E0.47428
G1 X37.917 Y-4.000 E0.47428
G1 X38.239 Y2.145 E0.47428
G1 X38.174 Y8.299 E0.47428
G1 X37.724 Y14.437 E0.47428
G1 X36.888 Y20.539 E0.47460
G1 X36.761 Y21.192 E0.05129
G1 X35.665 Y26.598 E0.42514
G1 X34.155 Y32.252 E0.45096
G1 X32.116 Y38.345 E0.49519
G1 X29.790 Y44.045 E0.47443
G1 X27.609 Y48.621 E0.39064
G1 X25.193 Y53.080 E0.39086
G1 X23.089 Y56.525 E0.31103
G1 X-36.280 Y18.117 E5.44922
G1 X-35.256 Y16.318 E0.15950
G1 X-34.037 Y13.461 E0.23944
G1 X-33.150 Y10.483 E0.23944
G1 X-32.608 Y7.424 E0.23944
G1 X-32.417 Y4.323 E0.23944
G1 X-32.579 Y1.220 E0.23944
G1 X-33.093 Y-1.844 E0.23944
G1 X-33.953 Y-4.830 E0.23944
G1 X-35.146 Y-7.699 E0.23944
G1 X-36.657 Y-10.413 E0.23944
G1 X-37.863 Y-12.095 E0.15950
G1 X-1.512 Y-41.427 E3.59962
G1 X12.247 Y-48.612 F15000.000
G1 X12.132 Y-49.034 E0.03371 F600.000
G1 X12.128 Y-49.492 E0.03531
G1 X12.216 Y-49.890 E0.03142
G1 X12.409 Y-50.279 E0.03350
G1 X12.689 Y-50.612 E0.03350
G1 X13.041 Y-50.867 E0.03350
G1 X13.443 Y-51.031 E0.03350
G1 X13.847 Y-51.090 E0.03142 F600.000
G1 X14.303 Y-51.053 E0.03531
G1 X14.716 Y-50.908 E0.03371
G1 X15.080 Y-50.669 E0.03350
G1 X15.376 Y-50.351 E0.03350
G1 X15.587 Y-49.971 E0.03350
G1 X15.701 Y-49.552 E0.03350
G1 X15.711 Y-49.117 E0.03350
G1 X15.618 Y-48.693 E0.03350
G1 X15.425 Y-48.303 E0.03349
G1 X15.145 Y-47.971 E0.03350
G1 X14.793 Y-47.716 E0.03350
G1 X14.391 Y-47.552 E0.03350
G1 X13.958 Y-47.489 E0.03371
G1 X13.502 Y-47.540 E0.03531
G1 X13.118 Y-47.675 E0.03142
G1 X12.752 Y-47.915 E0.03371
G1 X12.445 Y-48.255 E0.03531
G1 X12.276 Y-48.559 E0.02680
G1 X11.853 Y-48.682 F15000.000
G1 X11.721 Y-48.250 F15000.000
G1 X11.654 Y-48.370 E0.01057 F600.000
G1 X11.497 Y-48.946 E0.04599
G1 X11.492 Y-49.558 E0.04720
G1 X11.612 Y-50.102 E0.04293
G1 X11.873 Y-50.630 E0.04539
G1 X12.253 Y-51.081 E0.04539
G1 X12.730 Y-51.427 E0.04539
G1 X13.275 Y-51.649 E0.04539
G1 X13.826 Y-51.729 E0.04293 F600.000
G1 X14.437 Y-51.680 E0.04720
G1 X15.000 Y-51.482 E0.04599
G1 X15.492 Y-51.159 E0.04539
G1 X15.894 Y-50.728 E0.04539
G1 X16.180 Y-50.213 E0.04539
G1 X16.334 Y-49.644 E0.04539
G1 X16.349 Y-49.056 E0.04539
G1 X16.222 Y-48.480 E0.04539
G1 X15.961 Y-47.953 E0.04539
G1 X15.581 Y-47.502 E0.04539
G1 X15.104 Y-47.156 E0.04539
G1 X14.559 Y-46.934 E0.04539
G1 X13.968 Y-46.848 E0.04599
G1 X13.360 Y-46.916 E0.04720
G1 X12.834 Y-47.101 E0.04293
G1 X12.335 Y-47.428 E0.04599
G1 X11.925 Y-47.883 E0.04720
G1 X11.750 Y-48.198 E0.02774
G1 X7.340 Y-30.498 F15000.000
G1 X9.505 Y-29.668 E0.17868 F720.000
G1 X21.564 Y-23.786 E1.03402
G1 X15.682 Y-11.726 E1.03402
G1 X14.488 Y-9.739 E0.17868
G1 X12.956 Y-7.976 E0.18003
G1 X11.140 Y-6.506 E0.18003
G1 X9.097 Y-5.373 E0.18003
G1 X6.888 Y-4.613 E0.18003
G1 X4.581 Y-4.247 E0.18003
G1 X2.245 Y-4.288 E0.18003
G1 X-0.048 Y-4.734 E0.18003
G1 X-2.229 Y-5.571 E0.18003
G1 X-4.231 Y-6.774 E0.18003
G1 X-5.994 Y-8.307 E0.18003
G1 X-7.464 Y-10.122 E0.18003
G1 X-8.597 Y-12.165 E0.18003
G1 X-9.357 Y-14.374 E0.18003
G1 X-9.723 Y-16.681 E0.18003
G1 X-9.682 Y-19.017 E0.18003
G1 X-9.236 Y-21.310 E0.18003
G1 X-8.399 Y-23.491 E0.18003
G1 X-7.196 Y-25.493 E0.18003
G1 X-5.663 Y-27.256 E0.18003
G1 X-3.848 Y-28.726 E0.18003
G1 X-1.805 Y-29.859 E0.18003
G1 X0.404 Y-30.619 E0.18003
G1 X2.509 Y-30.953 E0.16423
G1 X2.711 Y-30.985 E0.01579 F720.000
G1 X5.047 Y-30.944 E0.18003
G1 X7.281 Y-30.510 E0.17540
G1 X7.636 Y-30.768 F15000.000
G1 X7.403 Y-31.134 F15000.000
G1 X7.516 Y-31.112 E0.00891 F720.000
G1 X9.758 Y-30.251 E0.18510
G1 X22.414 Y-24.078 E1.08515
G1 X16.241 Y-11.423 E1.08515
G1 X15.004 Y-9.364 E0.18510
G1 X13.399 Y-7.517 E0.18860
G1 X11.497 Y-5.977 E0.18860
G1 X9.357 Y-4.790 E0.18860
G1 X7.043 Y-3.993 E0.18860
G1 X4.626 Y-3.611 E0.18860
G1 X2.179 Y-3.653 E0.18860
G1 X-0.224 Y-4.120 E0.18860
G1 X-2.508 Y-4.997 E0.18860
G1 X-4.606 Y-6.258 E0.18860
G1 X-6.453 Y-7.863 E0.18860
G1 X-7.993 Y-9.765 E0.18860
G1 X-9.180 Y-11.906 E0.18860
G1 X-9.976 Y-14.220 E0.18860
G1 X-10.359 Y-16.637 E0.18860
G1 X-10.317 Y-19.084 E0.18860
G1 X-9.850 Y-21.486 E0.18860
G1 X-8.973 Y-23.771 E0.18860
G1 X-7.712 Y-25.868 E0.18860
G1 X-6.107 Y-27.715 E0.18860
G1 X-4.205 Y-29.255 E0.18860
G1 X-2.064 Y-30.442 E0.18860
G1 X0.250 Y-31.239 E0.18860
G1 X2.409 Y-31.581 E0.16852
G1 X2.667 Y-31.621 E0.02008 F720.000
G1 X5.114 Y-31.579 E0.18860
G1 X7.344 Y-31.145 E0.17507
G1 E-3.50000 F1500.00000
G1 Z0.700 F15000.000
G1 X-25.261 Y-12.660 F15000.000
G1 Z0.300 F15000.000
G1 E3.50000 F1500.00000
G1 X-24.968 Y-11.855 E0.06604 F600.000
G1 X-24.894 Y-11.047 E0.06250
G1 X-25.015 Y-10.248 E0.06229
G1 X-25.324 Y-9.501 E0.06229
G1 X-25.803 Y-8.849 E0.06229
G1 X-26.423 Y-8.331 E0.06229
G1 X-27.150 Y-7.977 E0.06229
G1 X-27.940 Y-7.807 E0.06229
G1 X-28.748 Y-7.831 E0.06229
G1 X-29.527 Y-8.047 E0.06229
G1 X-30.231 Y-8.444 E0.06229
G1 X-30.820 Y-8.998 E0.06229
G1 X-31.259 Y-9.676 E0.06229
G1 X-31.524 Y-10.440 E0.06229
G1 X-31.597 Y-11.245 E0.06229
G1 X-31.476 Y-12.044 E0.06229
G1 X-31.167 Y-12.791 E0.06229
G1 X-30.689 Y-13.443 E0.06229
G1 X-30.068 Y-13.960 E0.06229
G1 X-29.342 Y-14.315 E0.06229
G1 X-28.603 Y-14.474 E0.05823 F600.000
G1 X-27.746 Y-14.462 E0.06604
G1 X-26.965 Y-14.245 E0.06250
G1 X-26.260 Y-13.848 E0.06229
G1 X-25.672 Y-13.294 E0.06229
G1 X-25.293 Y-12.710 E0.05361
G1 X-24.863 Y-12.620 F15000.000
G1 X-24.760 Y-13.056 F15000.000
G1 X-24.688 Y-12.945 E0.01019 F600.000
G1 X-24.343 Y-11.994 E0.07794
G1 X-24.254 Y-11.028 E0.07479
G1 X-24.399 Y-10.076 E0.07419
G1 X-24.766 Y-9.187 E0.07419
G1 X-25.336 Y-8.411 E0.07419
G1 X-26.075 Y-7.794 E0.07419
G1 X-26.941 Y-7.372 E0.07419
G1 X-27.882 Y-7.169 E0.07419
G1 X-28.844 Y-7.198 E0.07419
G1 X-29.771 Y-7.456 E0.07419
G1 X-30.610 Y-7.928 E0.07419
