; generated by Slic3r 1.2.9 on 2019-03-22 at 16:36:39

; external perimeters extrusion width = 0.40mm
; perimeters extrusion width = 0.40mm
; infill extrusion width = 0.40mm
; solid infill extrusion width = 0.40mm
; top infill extrusion width = 0.40mm

M107
M83
T0
M116
G21 ; set units to millimeters
G90 ; use absolute coordinates
M83 ; use relative distances for extrusion
G1 E-3.50000 F1500.00000
G1 Z0.400 F15000.000
G1 X22.737 Y20.472 F15000.000
G1 Z0.300 F15000.000
G1 E3.50000 F1500.00000
G1 X21.991 Y21.290 E0.08530 F960.000
G1 X17.550 Y25.639 E0.47905
G1 X12.498 Y29.999 E0.51424
G1 X7.547 Y33.758 E0.47909
G1 X6.779 Y34.283 E0.07164
G1 X1.964 Y37.466 E0.44483
G1 X-3.352 Y40.533 E0.47295
G1 X-9.371 Y43.525 E0.51808
G1 X-15.102 Y45.934 E0.47906
G1 X-20.303 Y47.779 E0.42533
G1 X-25.214 Y49.238 E0.39480
G1 X-30.327 Y50.479 E0.40544
G1 X-32.020 Y50.482 E0.13052
G1 X-33.532 Y49.718 E0.13052
G1 X-34.735 Y47.707 E0.18061
G1 X-49.965 Y-23.330 E5.59892
G1 X-49.924 Y-25.024 E0.13052
G1 X-49.111 Y-26.525 E0.13158
G1 X-28.530 Y-49.384 E2.37045
G1 X-27.134 Y-50.344 E0.13052
G1 X-25.442 Y-50.566 E0.13158
G1 X-23.568 Y-50.366 E0.14519
G1 X46.798 Y-42.846 E5.45373 F960.000
G1 X48.394 Y-42.278 E0.13052
G1 X49.560 Y-41.050 E0.13052
G1 X50.016 Y-38.751 E0.18061
G1 X49.317 Y-33.536 E0.40544
G1 X48.340 Y-28.316 E0.40930
G1 X47.088 Y-23.134 E0.41083
G1 X45.291 Y-17.183 E0.47906
G1 X42.948 Y-10.887 E0.51773
G1 X40.639 Y-5.677 E0.43921
G1 X40.237 Y-4.842 E0.07140
G1 X37.346 Y0.663 E0.47919
G1 X34.125 Y5.980 E0.47909
G1 X30.221 Y11.580 E0.52608
G1 X26.456 Y16.331 E0.46719
G1 X22.777 Y20.428 E0.42431
G1 E-3.50000 F1500.00000
G1 Z0.700 F15000.000
G1 X-26.167 Y37.164 F15000.000
G1 Z0.300 F15000.000
G1 E3.50000 F1500.00000
G1 X-26.000 Y37.753 E0.04720 F600.000
G1 X-25.988 Y38.350 E0.04599
G1 X-26.117 Y38.924 E0.04539
G1 X-26.380 Y39.451 E0.04539
G1 X-26.762 Y39.900 E0.04539
G1 X-27.214 Y40.226 E0.04293
G1 X-27.778 Y40.463 E0.04720
G1 X-28.369 Y40.547 E0.04599
G1 X-28.963 Y40.487 E0.04599
G1 X-29.537 Y40.272 E0.04720
G1 X-30.001 Y39.965 E0.04293
G1 X-30.401 Y39.532 E0.04539
G1 X-30.685 Y39.016 E0.04539
G1 X-30.837 Y38.448 E0.04539
G1 X-30.849 Y37.859 E0.04539
G1 X-30.720 Y37.284 E0.04539
G1 X-30.457 Y36.757 E0.04539
G1 X-30.075 Y36.308 E0.04539
G1 X-29.591 Y35.960 E0.04599
G1 X-29.019 Y35.740 E0.04720
G1 X-28.468 Y35.662 E0.04293 F600.000
G1 X-27.882 Y35.721 E0.04539
G1 X-27.327 Y35.918 E0.04539
G1 X-26.835 Y36.243 E0.04539
G1 X-26.436 Y36.676 E0.04539
G1 X-26.196 Y37.112 E0.03831
G1 X-26.759 Y37.408 F15000.000
G1 X-26.633 Y37.848 E0.03531 F600.000
G1 X-26.625 Y38.286 E0.03371
G1 X-26.720 Y38.710 E0.03349
G1 X-26.914 Y39.098 E0.03350
G1 X-27.196 Y39.429 E0.03350
G1 X-27.527 Y39.668 E0.03142
G1 X-27.949 Y39.845 E0.03531
G1 X-28.382 Y39.907 E0.03371
G1 X-28.817 Y39.863 E0.03371
G1 X-29.246 Y39.702 E0.03531
G1 X-29.587 Y39.478 E0.03142
G1 X-29.881 Y39.158 E0.03350
G1 X-30.091 Y38.777 E0.03350
G1 X-30.203 Y38.358 E0.03350
G1 X-30.212 Y37.923 E0.03350
G1 X-30.117 Y37.499 E0.03350
G1 X-29.923 Y37.110 E0.03350
G1 X-29.641 Y36.779 E0.03350
G1 X-29.286 Y36.523 E0.03371
G1 X-28.858 Y36.359 E0.03531
G1 X-28.455 Y36.302 E0.03142 F600.000
G1 X-28.022 Y36.345 E0.03350
G1 X-27.613 Y36.491 E0.03350
G1 X-27.250 Y36.731 E0.03350
G1 X-26.956 Y37.050 E0.03350
G1 X-26.788 Y37.355 E0.02680
G1 X-26.365 Y37.476 F15000.000
G1 X-21.210 Y20.189 F15000.000
G1 X-21.952 Y19.948 E0.06012 F720.000
G1 X-24.113 Y18.799 E0.18860
G1 X-26.041 Y17.292 E0.18860
G1 X-27.679 Y15.473 E0.18860
G1 X-28.976 Y13.398 E0.18860
G1 X-29.892 Y11.129 E0.18860
G1 X-30.401 Y8.735 E0.18860
G1 X-30.487 Y6.289 E0.18860
G1 X-30.146 Y3.866 E0.18860
G1 X-29.390 Y1.539 E0.18860
G1 X-28.241 Y-0.622 E0.18860
G1 X-26.734 Y-2.551 E0.18860
G1 X-24.916 Y-4.188 E0.18860
G1 X-22.840 Y-5.485 E0.18860
G1 X-20.571 Y-6.402 E0.18860
G1 X-18.177 Y-6.911 E0.18860
G1 X-16.189 Y-6.980 E0.15330
G1 X-15.732 Y-6.996 E0.03530 F720.000
G1 X-13.308 Y-6.656 E0.18860
G1 X-10.981 Y-5.899 E0.18860
G1 X-8.820 Y-4.750 E0.18860
G1 X-6.891 Y-3.244 E0.18860
G1 X-5.254 Y-1.425 E0.18860
G1 X-3.957 Y0.650 E0.18860
G1 X-3.040 Y2.919 E0.18860
G1 X-2.531 Y5.313 E0.18860
G1 X-2.446 Y7.759 E0.18860
G1 X-2.780 Y10.138 E0.18510
G1 X-5.948 Y23.857 E1.08515
G1 X-19.668 Y20.690 E1.08515
G1 X-21.153 Y20.207 E0.12036
G1 X-20.957 Y19.603 F15000.000
G1 X-21.703 Y19.360 E0.06046 F720.000
G1 X-23.765 Y18.264 E0.18003
G1 X-25.606 Y16.825 E0.18003
G1 X-27.169 Y15.089 E0.18003
G1 X-28.407 Y13.108 E0.18003
G1 X-29.282 Y10.942 E0.18003
G1 X-29.768 Y8.657 E0.18003
G1 X-29.850 Y6.323 E0.18003
G1 X-29.524 Y4.010 E0.18003
G1 X-28.803 Y1.788 E0.18003
G1 X-27.706 Y-0.275 E0.18003
G1 X-26.268 Y-2.116 E0.18003
G1 X-24.532 Y-3.679 E0.18003
G1 X-22.551 Y-4.917 E0.18003
G1 X-20.385 Y-5.792 E0.18003
G1 X-18.100 Y-6.277 E0.18003
G1 X-16.167 Y-6.345 E0.14902
G1 X-15.765 Y-6.359 E0.03101 F720.000
G1 X-13.452 Y-6.034 E0.18003
G1 X-11.230 Y-5.312 E0.18003
G1 X-9.167 Y-4.215 E0.18003
G1 X-7.327 Y-2.777 E0.18003
G1 X-5.763 Y-1.041 E0.18003
G1 X-4.526 Y0.940 E0.18003
G1 X-3.650 Y3.106 E0.18003
G1 X-3.165 Y5.391 E0.18003
G1 X-3.083 Y7.726 E0.18003
G1 X-3.406 Y10.022 E0.17868
G1 X-6.424 Y23.095 E1.03402
G1 X-19.498 Y20.077 E1.03402
G1 X-20.900 Y19.621 E0.11359
G1 X-21.254 Y19.870 F15000.000
G1 E-3.50000 F1500.00000
G1 Z0.700 F15000.000
G1 X-35.492 Y-14.455 F15000.000
G1 Z0.300 F15000.000
G1 E3.50000 F1500.00000
G1 X-36.407 Y-14.156 E0.07419 F600.000
G1 X-37.367 Y-14.085 E0.07419
G1 X-38.316 Y-14.246 E0.07419
G1 X-39.199 Y-14.629 E0.07419
G1 X-39.965 Y-15.213 E0.07419
G1 X-40.569 Y-15.963 E0.07419
G1 X-40.975 Y-16.835 E0.07419
G1 X-41.162 Y-17.780 E0.07419
G1 X-41.116 Y-18.741 E0.07419
G1 X-40.842 Y-19.664 E0.07419
G1 X-40.356 Y-20.494 E0.07419
G1 X-39.684 Y-21.184 E0.07419
G1 X-38.867 Y-21.693 E0.07419
G1 X-37.952 Y-21.992 E0.07419
G1 X-37.049 Y-22.059 E0.06974 F600.000
G1 X-36.050 Y-21.905 E0.07794
G1 X-35.160 Y-21.519 E0.07479
G1 X-34.394 Y-20.936 E0.07419
G1 X-33.790 Y-20.186 E0.07419
G1 X-33.383 Y-19.313 E0.07419
G1 X-32.974 Y-17.240 E0.16287
G1 X-33.292 Y-17.240 E0.02447
G1 X-33.516 Y-16.484 E0.06073
G1 X-34.003 Y-15.654 E0.07419
G1 X-34.675 Y-14.964 E0.07419
G1 X-35.441 Y-14.487 E0.06956
G1 X-35.762 Y-15.035 F15000.000
G1 X-36.531 Y-14.785 E0.06229 F600.000
G1 X-37.337 Y-14.725 E0.06229
G1 X-38.134 Y-14.860 E0.06229
G1 X-38.875 Y-15.182 E0.06229
G1 X-39.518 Y-15.672 E0.06229
G1 X-40.025 Y-16.301 E0.06229
G1 X-40.367 Y-17.034 E0.06229
G1 X-40.523 Y-17.827 E0.06229
G1 X-40.485 Y-18.634 E0.06229
G1 X-40.255 Y-19.409 E0.06229
G1 X-39.846 Y-20.106 E0.06229
G1 X-39.282 Y-20.686 E0.06229
G1 X-38.596 Y-21.113 E0.06229
G1 X-37.828 Y-21.364 E0.06229
G1 X-37.074 Y-21.420 E0.05823 F600.000
G1 X-36.227 Y-21.290 E0.06604
G1 X-35.483 Y-20.967 E0.06250
G1 X-34.840 Y-20.477 E0.06229
G1 X-34.333 Y-19.847 E0.06229
G1 X-33.992 Y-19.115 E0.06229
G1 X-33.748 Y-17.875 E0.09734
G1 X-33.857 Y-17.875 E0.00840
G1 X-33.873 Y-17.514 E0.02787
G1 X-34.104 Y-16.739 E0.06229
G1 X-34.512 Y-16.042 E0.06229
G1 X-35.076 Y-15.463 E0.06229
G1 X-35.711 Y-15.067 E0.05767
G1 X-35.813 Y-14.639 F15000.000
G1 E-3.50000 F1500.00000
G1 Z0.700 F15000.000
G1 X-21.432 Y-35.331 F15000.000
G1 Z0.300 F15000.000
G1 E3.50000 F1500.00000
G1 X-22.093 Y-36.031 E0.07419 F600.000
G1 X-22.566 Y-36.869 E0.07419
G1 X-22.825 Y-37.797 E0.07419
G1 X-22.855 Y-38.759 E0.07419
G1 X-22.653 Y-39.700 E0.07419
G1 X-22.233 Y-40.566 E0.07419
G1 X-21.617 Y-41.306 E0.07419
G1 X-20.842 Y-41.877 E0.07419
G1 X-19.953 Y-42.246 E0.07419
G1 X-19.058 Y-42.383 E0.06974 F600.000
G1 X-18.050 Y-42.307 E0.07794
G1 X-17.132 Y-41.992 E0.07479
G1 X-16.323 Y-41.469 E0.07419
G1 X-15.663 Y-40.769 E0.07419
G1 X-15.190 Y-39.931 E0.07419
G1 X-14.930 Y-39.004 E0.07419
G1 X-14.901 Y-38.041 E0.07419
G1 X-15.102 Y-37.100 E0.07419
G1 X-15.523 Y-36.234 E0.07419
G1 X-16.139 Y-35.494 E0.07419
G1 X-16.914 Y-34.923 E0.07419
G1 X-17.803 Y-34.554 E0.07419
G1 X-18.755 Y-34.409 E0.07419
G1 X-19.713 Y-34.495 E0.07419
G1 X-20.624 Y-34.809 E0.07419
G1 X-21.382 Y-35.298 E0.06956
G1 X-21.023 Y-35.823 F15000.000
G1 X-21.577 Y-36.411 E0.06229 F600.000
G1 X-21.975 Y-37.115 E0.06229
G1 X-22.192 Y-37.893 E0.06229
G1 X-22.217 Y-38.701 E0.06229
G1 X-22.048 Y-39.492 E0.06229
G1 X-21.695 Y-40.219 E0.06229
G1 X-21.178 Y-40.840 E0.06229
G1 X-20.527 Y-41.319 E0.06229
G1 X-19.780 Y-41.629 E0.06229
G1 X-19.033 Y-41.743 E0.05823 F600.000
G1 X-18.179 Y-41.680 E0.06604
G1 X-17.412 Y-41.416 E0.06251
G1 X-16.733 Y-40.977 E0.06229
G1 X-16.179 Y-40.389 E0.06229
G1 X-15.781 Y-39.685 E0.06229
G1 X-15.563 Y-38.907 E0.06229
G1 X-15.538 Y-38.099 E0.06229
G1 X-15.708 Y-37.308 E0.06229
G1 X-16.061 Y-36.582 E0.06229
G1 X-16.578 Y-35.960 E0.06229
G1 X-17.229 Y-35.481 E0.06229
G1 X-17.975 Y-35.171 E0.06229
G1 X-18.774 Y-35.049 E0.06229
G1 X-19.579 Y-35.121 E0.06229
G1 X-20.344 Y-35.385 E0.06229
G1 X-20.972 Y-35.790 E0.05767
G1 X-21.403 Y-35.700 F15000.000
G1 X-3.883 Y-27.456 F15000.000
G1 X-3.786 Y-27.655 E0.01710 F720.000
G1 X-2.348 Y-29.635 E0.18860
G1 X-0.587 Y-31.335 E0.18860
G1 X1.442 Y-32.703 E0.18860
G1 X3.677 Y-33.699 E0.18860
G1 X6.052 Y-34.291 E0.18860
G1 X8.233 Y-34.443 E0.16852
G1 X8.493 Y-34.462 E0.02008 F720.000
G1 X10.927 Y-34.206 E0.18860
G1 X13.280 Y-33.531 E0.18860
G1 X15.479 Y-32.458 E0.18860
G1 X17.459 Y-31.020 E0.18860
G1 X19.159 Y-29.260 E0.18860
G1 X20.528 Y-27.231 E0.18860
G1 X21.504 Y-25.036 E0.18510
G1 X26.089 Y-11.723 E1.08515
G1 X12.775 Y-7.138 E1.08515
G1 X10.445 Y-6.557 E0.18510
G1 X8.003 Y-6.387 E0.18860
G1 X5.569 Y-6.642 E0.18860
G1 X3.217 Y-7.317 E0.18860
G1 X1.017 Y-8.390 E0.18860
G1 X-0.963 Y-9.828 E0.18860
G1 X-2.663 Y-11.589 E0.18860
G1 X-4.031 Y-13.618 E0.18860
G1 X-5.026 Y-15.853 E0.18860
G1 X-5.618 Y-18.228 E0.18860
G1 X-5.789 Y-20.669 E0.18860
G1 X-5.533 Y-23.103 E0.18860
G1 X-4.859 Y-25.455 E0.18860
G1 X-3.910 Y-27.402 E0.16687
G1 X-3.338 Y-27.123 F15000.000
G1 X-3.239 Y-27.326 E0.01744 F720.000
G1 X-1.866 Y-29.216 E0.18003
G1 X-0.186 Y-30.839 E0.18003
G1 X1.751 Y-32.145 E0.18003
G1 X3.885 Y-33.096 E0.18003
G1 X6.152 Y-33.661 E0.18003
G1 X8.278 Y-33.809 E0.16423
G1 X8.482 Y-33.824 E0.01579 F720.000
G1 X10.805 Y-33.579 E0.18003
G1 X13.051 Y-32.936 E0.18003
G1 X15.151 Y-31.911 E0.18003
G1 X17.040 Y-30.538 E0.18003
G1 X18.663 Y-28.858 E0.18003
G1 X19.969 Y-26.921 E0.18003
G1 X20.912 Y-24.803 E0.17868
G1 X25.281 Y-12.117 E1.03402
G1 X12.594 Y-7.748 E1.03402
G1 X10.345 Y-7.188 E0.17868
G1 X8.014 Y-7.025 E0.18003
G1 X5.691 Y-7.269 E0.18003
G1 X3.446 Y-7.913 E0.18003
G1 X1.346 Y-8.937 E0.18003
G1 X-0.544 Y-10.310 E0.18003
G1 X-2.167 Y-11.990 E0.18003
G1 X-3.473 Y-13.927 E0.18003
G1 X-4.423 Y-16.061 E0.18003
G1 X-4.988 Y-18.328 E0.18003
G1 X-5.151 Y-20.658 E0.18003
G1 X-4.907 Y-22.981 E0.18003
G1 X-4.263 Y-25.227 E0.18003
G1 X-3.365 Y-27.069 E0.15796
G1 X-3.465 Y-27.311 F15000.000
G1 E-3.50000 F1500.00000
G1 Z0.700 F15000.000
G1 X35.512 Y-35.169 F15000.000
G1 Z0.300 F15000.000
G1 E3.50000 F1500.00000
G1 X35.473 Y-35.361 E0.01507 F600.000
G1 X35.504 Y-35.972 E0.04720
G1 X35.657 Y-36.508 E0.04293
G1 X35.950 Y-37.019 E0.04539
G1 X36.356 Y-37.446 E0.04539
G1 X36.852 Y-37.763 E0.04539
G1 X37.410 Y-37.951 E0.04539
G1 X37.965 Y-37.998 E0.04293 F600.000
G1 X38.572 Y-37.912 E0.04720
G1 X39.122 Y-37.680 E0.04599
G1 X39.594 Y-37.328 E0.04539
G1 X39.968 Y-36.874 E0.04539
G1 X40.223 Y-36.343 E0.04539
G1 X40.343 Y-35.766 E0.04539
G1 X40.322 Y-35.177 E0.04539
G1 X40.160 Y-34.611 E0.04539
G1 X39.868 Y-34.100 E0.04539
G1 X39.461 Y-33.673 E0.04539
G1 X38.965 Y-33.356 E0.04539
G1 X38.407 Y-33.168 E0.04539
G1 X37.820 Y-33.118 E0.04539
G1 X37.238 Y-33.210 E0.04539
G1 X36.696 Y-33.439 E0.04539
G1 X36.223 Y-33.791 E0.04539
G1 X35.849 Y-34.245 E0.04539
G1 X35.594 Y-34.776 E0.04539
G1 X35.525 Y-35.110 E0.02629
G1 X36.147 Y-35.240 F15000.000
G1 X36.112 Y-35.410 E0.01336 F600.000
G1 X36.135 Y-35.867 E0.03531
G1 X36.247 Y-36.259 E0.03142
G1 X36.463 Y-36.637 E0.03350
G1 X36.763 Y-36.951 E0.03350
G1 X37.129 Y-37.185 E0.03350
G1 X37.541 Y-37.325 E0.03350
G1 X37.947 Y-37.359 E0.03142 F600.000
G1 X38.401 Y-37.294 E0.03531
G1 X38.804 Y-37.124 E0.03371
G1 X39.152 Y-36.865 E0.03349
G1 X39.429 Y-36.529 E0.03350
G1 X39.616 Y-36.137 E0.03350
G1 X39.705 Y-35.712 E0.03350
G1 X39.689 Y-35.277 E0.03350
G1 X39.570 Y-34.859 E0.03350
G1 X39.354 Y-34.482 E0.03350
G1 X39.055 Y-34.168 E0.03350
G1 X38.688 Y-33.934 E0.03350
G1 X38.276 Y-33.794 E0.03349
G1 X37.843 Y-33.758 E0.03350
G1 X37.414 Y-33.826 E0.03350
G1 X37.013 Y-33.994 E0.03350
G1 X36.665 Y-34.254 E0.03350
G1 X36.389 Y-34.590 E0.03350
G1 X36.201 Y-34.982 E0.03350
G1 X36.159 Y-35.181 E0.01572
G1 X35.982 Y-35.294 F15000.000
G1 X9.680 Y26.337 F15000.000
G1 X4.774 Y30.061 E0.47460 F720.000
G1 X-0.376 Y33.481 E0.47643
G1 X-5.441 Y36.411 E0.45096
G1 X-11.191 Y39.278 E0.49519
G1 X-16.866 Y41.663 E0.47443
G1 X-21.644 Y43.357 E0.39064
G1 X-26.506 Y44.801 E0.39086
G1 X-30.429 Y45.749 E0.31103
G1 X-45.251 Y-23.389 E5.44922
G1 X-43.255 Y-23.937 E0.15950
G1 X-40.372 Y-25.095 E0.23944
G1 X-37.640 Y-26.574 E0.23944
G1 X-35.093 Y-28.354 E0.23944
G1 X-32.765 Y-30.411 E0.23944
G1 X-30.686 Y-32.720 E0.23944
G1 X-28.883 Y-35.251 E0.23944
G1 X-27.379 Y-37.969 E0.23944
G1 X-26.194 Y-40.842 E0.23944
G1 X-25.344 Y-43.830 E0.23944
G1 X-25.007 Y-45.872 E0.15950
G1 X-24.059 Y-45.771 E0.07344
G1 X45.302 Y-38.358 E5.37578 F720.000
G1 X44.769 Y-34.357 E0.31103
G1 X43.840 Y-29.371 E0.39086
G1 X42.656 Y-24.443 E0.39064
G1 X40.876 Y-18.549 E0.47448
G1 X38.711 Y-12.732 E0.47830
G1 X36.420 Y-7.563 E0.43575
G1 X36.136 Y-6.971 E0.05060
G1 X33.377 Y-1.705 E0.45815
G1 X30.189 Y3.559 E0.47429
G1 X26.581 Y8.734 E0.48612
G1 X22.853 Y13.437 E0.46248
G1 X18.735 Y18.010 E0.47428
G1 X14.338 Y22.316 E0.47428
G1 X9.725 Y26.298 E0.46966
G1 X10.140 Y26.779 F15000.000
G1 X5.145 Y30.578 E0.48365 F720.000
G1 X-0.041 Y34.021 E0.47970
G1 X-5.140 Y36.971 E0.45396
G1 X-10.926 Y39.856 E0.49829
G1 X-16.637 Y42.256 E0.47741
G1 X-21.447 Y43.961 E0.39331
G1 X-26.341 Y45.415 E0.39340
G1 X-30.914 Y46.520 E0.36256
G1 X-45.998 Y-23.843 E5.54576
G1 X-43.458 Y-24.540 E0.20298
G1 X-40.643 Y-25.672 E0.23385
G1 X-37.974 Y-27.116 E0.23385
G1 X-35.487 Y-28.854 E0.23385
G1 X-33.213 Y-30.864 E0.23385
G1 X-31.183 Y-33.119 E0.23385
G1 X-29.422 Y-35.590 E0.23385
G1 X-27.953 Y-38.245 E0.23385
G1 X-26.796 Y-41.050 E0.23385
G1 X-25.965 Y-43.969 E0.23385
G1 X-25.536 Y-46.568 E0.20298
G1 X-23.992 Y-46.403 E0.11971
G1 X46.018 Y-38.921 E5.42605 F720.000
G1 X45.397 Y-34.257 E0.36256
G1 X44.462 Y-29.239 E0.39340
G1 X43.269 Y-24.277 E0.39331
G1 X41.479 Y-18.346 E0.47743
G1 X39.300 Y-12.492 E0.48134
G1 X36.997 Y-7.297 E0.43798
G1 X36.704 Y-6.686 E0.05220
G1 X33.931 Y-1.392 E0.46054
G1 X30.722 Y3.906 E0.47738
G1 X27.091 Y9.113 E0.48920
G1 X23.339 Y13.847 E0.46552
G1 X19.194 Y18.450 E0.47736
G1 X14.769 Y22.784 E0.47736
G1 X10.186 Y26.740 E0.46657
G1 X9.768 Y26.632 F15000.000
G1 X-3.000 Y1.829 F15000.000
G1 X15.696 Y20.525 E2.04251 F960.000
G1 X15.241 Y20.971 E0.04922
G1 X-2.562 Y3.168 E1.94487
G1 X-2.318 Y4.313 E0.09037
G1 X14.786 Y21.417 E1.86857
G1 X14.330 Y21.863 E0.04922
G1 X-2.138 Y5.394 E1.79914
G1 X-2.106 Y6.328 E0.07217
G1 X13.860 Y22.293 E1.74417
G1 X13.376 Y22.710 E0.04935
G1 X-2.073 Y7.261 E1.68778
G1 X-2.124 Y8.111 E0.06578
G1 X12.893 Y23.128 E1.64052
G1 X12.409 Y23.545 E0.04935
G1 X-2.235 Y8.901 E1.59982
G1 X-2.346 Y9.691 E0.06163
G1 X11.925 Y23.963 E1.55911
G1 X11.442 Y24.380 E0.04935
G1 X-2.485 Y10.453 E1.52149
G1 X-2.654 Y11.185 E0.05804
G1 X10.958 Y24.798 E1.48712
G1 X10.475 Y25.215 E0.04935
G1 X-2.823 Y11.917 E1.45275
G1 X-2.992 Y12.649 E0.05804
G1 X9.991 Y25.633 E1.41838
G1 X9.507 Y26.050 E0.04935
G1 X-3.161 Y13.381 E1.38401
G1 X-3.330 Y14.113 E0.05804
G1 X8.996 Y26.440 E1.34664
G1 X8.484 Y26.829 E0.04968
G1 X-3.499 Y14.846 E1.30914
G1 X-3.668 Y15.578 E0.05804
G1 X7.972 Y27.218 E1.27165
G1 X7.460 Y27.606 E0.04968
G1 X-3.837 Y16.310 E1.23415
G1 X-4.006 Y17.042 E0.05804
G1 X6.947 Y27.995 E1.19665
G1 X6.435 Y28.384 E0.04968
G1 X-4.175 Y17.774 E1.15916
G1 X-4.344 Y18.506 E0.05804
G1 X5.923 Y28.773 E1.12166
G1 X5.411 Y29.162 E0.04968
G1 X-4.513 Y19.238 E1.08416
G1 X-4.682 Y19.970 E0.05804
G1 X4.898 Y29.551 E1.04666
